;FLAVOR:Marlin
;TIME:6988
;Filament used: 4.36495m
;Layer height: 0.2
;MINX:91.5
;MINY:84.926
;MINZ:0.2
;MAXX:143.5
;MAXY:150.074
;MAXZ:35
;Generated with Cura_SteamEngine 5.0.0
M140 S50
M105
M190 S50
M104 S200
M105
M109 S200
M82 ;absolute extrusion mode
; Ender 3 Custom Start G-code
G92 E0 ; Reset Extruder
G28 ; Home all axes
G1 Z2.0 F3000 ; Move Z Axis up little to prevent scratching of Heat Bed
G1 X0.1 Y20 Z0.3 F5000.0 ; Move to start position
G1 X0.1 Y200.0 Z0.3 F1500.0 E15 ; Draw the first line
G1 X0.4 Y200.0 Z0.3 F5000.0 ; Move to side a little
G1 X0.4 Y20 Z0.3 F1500.0 E30 ; Draw the second line
G92 E0 ; Reset Extruder
G1 Z2.0 F3000 ; Move Z Axis up little to prevent scratching of Heat Bed
G1 X5 Y20 Z0.3 F5000.0 ; Move over to prevent blob squish
G92 E0
G92 E0
G1 F2700 E-5
;LAYER_COUNT:175
;LAYER:0
M107
G0 F6000 X94.698 Y88.19 Z0.2
G0 X91.501 Y96.451
;TYPE:SKIRT
G1 F2700 E0
G1 F1200 X91.51 Y95.786 E0.02212
G1 X91.563 Y94.85 E0.0533
G1 X91.695 Y93.921 E0.08451
G1 X91.906 Y93.007 E0.11571
G1 X92.194 Y92.115 E0.14689
G1 X92.557 Y91.25 E0.17809
G1 X92.992 Y90.419 E0.20928
G1 X93.496 Y89.629 E0.24045
G1 X94.066 Y88.884 E0.27165
G1 X94.698 Y88.19 E0.30287
G1 X95.386 Y87.553 E0.33405
G1 X96.126 Y86.977 E0.36524
G1 X96.912 Y86.465 E0.39644
G1 X97.739 Y86.023 E0.42763
G1 X98.601 Y85.653 E0.45883
G1 X99.491 Y85.357 E0.49003
G1 X100.403 Y85.139 E0.52122
G1 X101.33 Y84.998 E0.5524
G1 X102.201 Y84.939 E0.58144
G1 X102.83 Y84.926 E0.60236
G1 X131.793 Y84.926 E1.56568
G1 X132.649 Y84.937 E1.59415
G1 X133.585 Y84.991 E1.62533
G1 X134.513 Y85.123 E1.65651
G1 X135.427 Y85.335 E1.68772
G1 X136.319 Y85.624 E1.7189
G1 X137.184 Y85.987 E1.7501
G1 X138.014 Y86.423 E1.78129
G1 X138.805 Y86.928 E1.8125
G1 X139.549 Y87.499 E1.84369
G1 X140.242 Y88.131 E1.87489
G1 X140.879 Y88.819 E1.90607
G1 X141.454 Y89.56 E1.93727
G1 X141.965 Y90.346 E1.96845
G1 X142.407 Y91.174 E1.99967
G1 X142.776 Y92.036 E2.03085
G1 X143.071 Y92.926 E2.06204
G1 X143.289 Y93.838 E2.09323
G1 X143.429 Y94.766 E2.12444
G1 X143.487 Y95.627 E2.15314
G1 X143.5 Y96.256 E2.17407
G1 X143.499 Y98.366 E2.24425
G1 X143.488 Y99.094 E2.26846
G1 X143.434 Y100.03 E2.29965
G1 X143.329 Y100.799 E2.32546
G1 X142.826 Y103.712 E2.42378
G1 X142.476 Y106.173 E2.50646
G1 X142.188 Y108.705 E2.59122
G1 X141.976 Y111.194 E2.6743
G1 X141.835 Y113.678 E2.75705
G1 X141.763 Y116.236 E2.84216
G1 X141.763 Y118.725 E2.92495
G1 X141.835 Y121.284 E3.0101
G1 X141.975 Y123.742 E3.09198
G1 X142.192 Y126.301 E3.1774
G1 X142.471 Y128.75 E3.25938
G1 X142.83 Y131.276 E3.34424
G1 X143.333 Y134.219 E3.44354
G1 X143.451 Y135.149 E3.47472
G1 X143.485 Y135.741 E3.49445
G1 X143.5 Y136.404 E3.5165
G1 X143.499 Y138.474 E3.58535
G1 X143.49 Y139.201 E3.60953
G1 X143.439 Y140.138 E3.64074
G1 X143.307 Y141.066 E3.67192
G1 X143.098 Y141.98 E3.70311
G1 X142.811 Y142.873 E3.7343
G1 X142.449 Y143.739 E3.76552
G1 X142.015 Y144.57 E3.7967
G1 X141.511 Y145.361 E3.8279
G1 X140.942 Y146.106 E3.85908
G1 X140.311 Y146.801 E3.8903
G1 X139.624 Y147.439 E3.92148
G1 X138.885 Y148.016 E3.95267
G1 X138.099 Y148.528 E3.98387
G1 X137.273 Y148.971 E4.01504
G1 X136.411 Y149.343 E4.04627
G1 X135.522 Y149.639 E4.07743
G1 X134.61 Y149.859 E4.10863
G1 X133.683 Y150 E4.13982
G1 X132.799 Y150.061 E4.16929
G1 X132.17 Y150.074 E4.19022
G1 X103.065 Y150.073 E5.15825
G1 X102.367 Y150.064 E5.18147
G1 X101.431 Y150.012 E5.21265
G1 X100.502 Y149.88 E5.24386
G1 X99.588 Y149.67 E5.27505
G1 X98.695 Y149.383 E5.30625
G1 X97.83 Y149.02 E5.33745
G1 X96.999 Y148.586 E5.36863
G1 X96.208 Y148.082 E5.39983
G1 X95.463 Y147.512 E5.43103
G1 X94.769 Y146.881 E5.46222
G1 X94.132 Y146.194 E5.49338
G1 X93.555 Y145.454 E5.52459
G1 X93.043 Y144.668 E5.55579
G1 X92.6 Y143.841 E5.587
G1 X92.229 Y142.98 E5.61818
G1 X91.933 Y142.09 E5.64938
G1 X91.714 Y141.178 E5.68057
G1 X91.573 Y140.251 E5.71176
G1 X91.513 Y139.362 E5.74139
G1 X91.5 Y138.732 E5.76235
G1 X91.501 Y136.61 E5.83293
G1 X91.512 Y135.901 E5.85652
G1 X91.567 Y134.965 E5.8877
G1 X91.671 Y134.201 E5.91335
G1 X92.174 Y131.288 E6.01167
G1 X92.524 Y128.827 E6.09434
G1 X92.812 Y126.295 E6.1791
G1 X93.024 Y123.806 E6.26218
G1 X93.165 Y121.322 E6.34494
G1 X93.237 Y118.764 E6.43005
G1 X93.237 Y116.275 E6.51283
G1 X93.165 Y113.716 E6.59798
G1 X93.025 Y111.255 E6.67997
G1 X92.809 Y108.701 E6.76522
G1 X92.529 Y106.245 E6.84743
G1 X92.168 Y103.708 E6.93266
G1 X91.666 Y100.765 E7.03196
G1 X91.548 Y99.834 E7.06317
G1 X91.513 Y99.225 E7.08346
G1 X91.5 Y98.596 E7.10439
G1 X91.501 Y96.451 E7.17573
G0 F6000 X91.9 Y98.596
G1 F1200 X91.901 Y96.457 E7.24687
G1 X91.91 Y95.792 E7.26899
G1 X91.962 Y94.872 E7.29964
G1 X92.094 Y93.961 E7.33026
G1 X92.305 Y93.065 E7.36087
G1 X92.592 Y92.19 E7.3915
G1 X92.955 Y91.344 E7.42212
G1 X93.389 Y90.532 E7.45274
G1 X93.892 Y89.761 E7.48336
G1 X94.461 Y89.037 E7.51399
G1 X95.089 Y88.365 E7.54458
G1 X95.774 Y87.749 E7.57522
G1 X96.51 Y87.196 E7.60584
G1 X97.291 Y86.708 E7.63647
G1 X98.111 Y86.29 E7.66708
G1 X98.965 Y85.945 E7.69772
G1 X99.845 Y85.675 E7.72833
G1 X100.745 Y85.483 E7.75894
G1 X101.659 Y85.369 E7.78958
G1 X102.212 Y85.339 E7.808
G1 X102.83 Y85.326 E7.82856
G1 X131.793 Y85.326 E8.79187
G1 X132.643 Y85.337 E8.82014
G1 X133.562 Y85.39 E8.85076
G1 X134.473 Y85.523 E8.88138
G1 X135.369 Y85.734 E8.912
G1 X136.243 Y86.022 E8.9426
G1 X137.09 Y86.385 E8.97325
G1 X137.901 Y86.82 E9.00386
G1 X138.671 Y87.324 E9.03447
G1 X139.395 Y87.893 E9.0651
G1 X140.067 Y88.523 E9.09574
G1 X140.682 Y89.208 E9.12635
G1 X141.235 Y89.944 E9.15697
G1 X141.722 Y90.725 E9.18759
G1 X142.139 Y91.546 E9.21821
G1 X142.484 Y92.4 E9.24885
G1 X142.753 Y93.28 E9.27945
G1 X142.945 Y94.181 E9.31009
G1 X143.058 Y95.094 E9.34069
G1 X143.096 Y95.958 E9.36946
G1 X143.099 Y98.36 E9.44935
G1 X143.088 Y99.088 E9.47356
G1 X143.034 Y100.007 E9.50418
G1 X142.935 Y100.731 E9.52849
G1 X142.431 Y103.653 E9.62711
G1 X142.076 Y106.143 E9.71076
G1 X141.794 Y108.624 E9.79381
G1 X141.577 Y111.175 E9.87896
G1 X141.435 Y113.68 E9.96242
G1 X141.363 Y116.225 E10.0471
G1 X141.363 Y118.736 E10.13061
G1 X141.435 Y121.282 E10.21533
G1 X141.578 Y123.8 E10.29921
G1 X141.791 Y126.313 E10.38309
G1 X142.075 Y128.811 E10.46671
G1 X142.438 Y131.362 E10.55241
G1 X142.938 Y134.286 E10.65108
G1 X143.054 Y135.199 E10.68169
G1 X143.085 Y135.753 E10.70014
G1 X143.1 Y136.404 E10.7218
G1 X143.099 Y138.469 E10.79048
G1 X143.09 Y139.196 E10.81467
G1 X143.039 Y140.115 E10.84528
G1 X142.908 Y141.027 E10.87592
G1 X142.698 Y141.923 E10.90653
G1 X142.412 Y142.798 E10.93715
G1 X142.051 Y143.645 E10.96777
G1 X141.617 Y144.457 E10.9984
G1 X141.115 Y145.229 E11.02902
G1 X140.547 Y145.954 E11.05966
G1 X139.919 Y146.627 E11.09027
G1 X139.235 Y147.243 E11.12089
G1 X138.5 Y147.797 E11.1515
G1 X137.72 Y148.286 E11.18212
G1 X136.9 Y148.705 E11.21275
G1 X136.047 Y149.051 E11.24336
G1 X135.167 Y149.322 E11.27399
G1 X134.267 Y149.515 E11.3046
G1 X133.353 Y149.63 E11.33524
G1 X132.788 Y149.661 E11.35406
G1 X132.17 Y149.674 E11.37462
G1 X103.07 Y149.673 E12.34249
G1 X102.372 Y149.664 E12.36571
G1 X101.453 Y149.612 E12.39633
G1 X100.542 Y149.481 E12.42694
G1 X99.646 Y149.271 E12.45755
G1 X98.771 Y148.984 E12.48817
G1 X97.924 Y148.622 E12.51881
G1 X97.112 Y148.188 E12.54943
G1 X96.341 Y147.686 E12.58003
G1 X95.616 Y147.118 E12.61067
G1 X94.943 Y146.489 E12.6413
G1 X94.328 Y145.805 E12.6719
G1 X93.774 Y145.07 E12.70251
G1 X93.286 Y144.289 E12.73314
G1 X92.867 Y143.469 E12.76377
G1 X92.521 Y142.616 E12.79438
G1 X92.251 Y141.736 E12.825
G1 X92.058 Y140.835 E12.85565
G1 X91.944 Y139.922 E12.88625
G1 X91.913 Y139.351 E12.90527
G1 X91.9 Y138.732 E12.92586
G1 X91.901 Y136.617 E12.99621
G1 X91.912 Y135.908 E13.01979
G1 X91.967 Y134.989 E13.05041
G1 X92.065 Y134.269 E13.07458
G1 X92.569 Y131.347 E13.1732
G1 X92.924 Y128.857 E13.25686
G1 X93.206 Y126.376 E13.33991
G1 X93.423 Y123.825 E13.42506
G1 X93.565 Y121.32 E13.50851
G1 X93.637 Y118.775 E13.59319
G1 X93.637 Y116.264 E13.67671
G1 X93.565 Y113.718 E13.76142
G1 X93.422 Y111.197 E13.8454
G1 X93.21 Y108.693 E13.92899
G1 X92.924 Y106.18 E14.01311
G1 X92.564 Y103.65 E14.0981
G1 X92.06 Y100.697 E14.19774
G1 X91.945 Y99.784 E14.22835
G1 X91.913 Y99.214 E14.24734
G1 X91.9 Y98.596 E14.26789
G0 F6000 X92.3 Y98.596
G1 F1200 X92.301 Y96.462 E14.33887
G1 X92.31 Y95.797 E14.36099
G1 X92.362 Y94.895 E14.39104
G1 X92.494 Y94.002 E14.42107
G1 X92.704 Y93.124 E14.45109
G1 X92.991 Y92.267 E14.48115
G1 X93.353 Y91.44 E14.51118
G1 X93.786 Y90.648 E14.5412
G1 X94.288 Y89.897 E14.57125
G1 X94.855 Y89.193 E14.60131
G1 X95.481 Y88.543 E14.63133
G1 X96.162 Y87.95 E14.66136
G1 X96.894 Y87.42 E14.69142
G1 X97.669 Y86.957 E14.72144
G1 X98.482 Y86.564 E14.75148
G1 X99.327 Y86.244 E14.78153
G1 X100.196 Y86.001 E14.81154
G1 X101.084 Y85.835 E14.84159
G1 X102.223 Y85.739 E14.87961
G1 X102.83 Y85.726 E14.8998
G1 X131.793 Y85.726 E15.86311
G1 X132.637 Y85.737 E15.89119
G1 X133.539 Y85.79 E15.92124
G1 X134.432 Y85.922 E15.95126
G1 X135.31 Y86.133 E15.9813
G1 X136.166 Y86.421 E16.01134
G1 X136.993 Y86.783 E16.04136
G1 X137.785 Y87.218 E16.07142
G1 X138.536 Y87.72 E16.10146
G1 X139.239 Y88.287 E16.1315
G1 X139.889 Y88.914 E16.16154
G1 X140.481 Y89.596 E16.19157
G1 X141.011 Y90.327 E16.22161
G1 X141.473 Y91.103 E16.25164
G1 X141.866 Y91.916 E16.28168
G1 X142.184 Y92.761 E16.31171
G1 X142.427 Y93.631 E16.34175
G1 X142.592 Y94.519 E16.37179
G1 X142.687 Y95.649 E16.40951
G1 X142.7 Y96.256 E16.4297
G1 X142.699 Y98.354 E16.49948
G1 X142.688 Y99.082 E16.5237
G1 X142.634 Y99.984 E16.55375
G1 X142.54 Y100.663 E16.57655
G1 X142.039 Y103.566 E16.67453
G1 X141.682 Y106.073 E16.75876
G1 X141.393 Y108.617 E16.84391
G1 X141.18 Y111.119 E16.92743
G1 X141.035 Y113.68 E17.01275
G1 X140.963 Y116.214 E17.09706
G1 X140.963 Y118.748 E17.18134
G1 X141.035 Y121.281 E17.26563
G1 X141.179 Y123.821 E17.35024
G1 X141.397 Y126.39 E17.436
G1 X141.68 Y128.881 E17.51938
G1 X142.036 Y131.381 E17.60337
G1 X142.544 Y134.354 E17.70368
G1 X142.657 Y135.25 E17.73372
G1 X142.695 Y136.096 E17.76189
G1 X142.7 Y138.338 E17.83646
G1 X142.69 Y139.191 E17.86483
G1 X142.639 Y140.093 E17.89488
G1 X142.508 Y140.987 E17.92493
G1 X142.299 Y141.865 E17.95495
G1 X142.013 Y142.722 E17.985
G1 X141.652 Y143.55 E18.01504
G1 X141.22 Y144.342 E18.04505
G1 X140.719 Y145.094 E18.0751
G1 X140.153 Y145.798 E18.10515
G1 X139.528 Y146.449 E18.13516
G1 X138.847 Y147.043 E18.16522
G1 X138.116 Y147.574 E18.19527
G1 X137.342 Y148.038 E18.22528
G1 X136.529 Y148.432 E18.25533
G1 X135.685 Y148.752 E18.28535
G1 X134.815 Y148.997 E18.31541
G1 X133.928 Y149.163 E18.34543
G1 X132.777 Y149.261 E18.38385
G1 X132.17 Y149.274 E18.40404
G1 X103.075 Y149.273 E19.37175
G1 X102.377 Y149.264 E19.39496
G1 X101.476 Y149.213 E19.42498
G1 X100.582 Y149.081 E19.45504
G1 X99.704 Y148.872 E19.48505
G1 X98.847 Y148.585 E19.51511
G1 X98.02 Y148.224 E19.54513
G1 X97.227 Y147.791 E19.57518
G1 X96.476 Y147.29 E19.6052
G1 X95.772 Y146.724 E19.63525
G1 X95.121 Y146.098 E19.66529
G1 X94.528 Y145.417 E19.69532
G1 X93.998 Y144.686 E19.72535
G1 X93.534 Y143.911 E19.7554
G1 X93.14 Y143.098 E19.78544
G1 X92.82 Y142.254 E19.81547
G1 X92.576 Y141.384 E19.84552
G1 X92.41 Y140.496 E19.87557
G1 X92.313 Y139.341 E19.91412
G1 X92.3 Y138.732 E19.93438
G1 X92.301 Y136.623 E20.00452
G1 X92.312 Y135.914 E20.02811
G1 X92.366 Y135.012 E20.05816
G1 X92.46 Y134.337 E20.08083
G1 X92.961 Y131.434 E20.17881
G1 X93.318 Y128.927 E20.26303
G1 X93.607 Y126.383 E20.34819
G1 X93.82 Y123.881 E20.43171
G1 X93.965 Y121.32 E20.51702
G1 X94.037 Y118.786 E20.60134
G1 X94.037 Y116.252 E20.68562
G1 X93.965 Y113.719 E20.7699
G1 X93.821 Y111.179 E20.85452
G1 X93.604 Y108.613 E20.94017
G1 X93.323 Y106.151 E21.02259
G1 X92.961 Y103.599 E21.10832
G1 X92.454 Y100.63 E21.2085
G1 X92.342 Y99.734 E21.23853
G1 X92.313 Y99.203 E21.25622
G1 X92.3 Y98.596 E21.27641
G1 F2700 E16.27641
;MESH:E.stl
G0 F6000 X102.924 Y135.409
G0 X102.924 Y136.498
G0 X103.08 Y138.494
G1 F2700 E21.27641
G0 F6000 X102.7 Y138.874
;TYPE:WALL-OUTER
G1 F1200 X132.3 Y138.874 E22.26091
G1 X132.3 Y137.574 E22.30415
G1 X132.3 Y136.274 E22.34739
G1 X128 Y136.274 E22.4904
G1 X127.842 Y136.198 E22.49624
G1 X127.8 Y136.074 E22.50059
G1 X127.8 Y98.906 E23.7368
G1 X127.84 Y98.805 E23.74042
G1 X128 Y98.726 E23.74635
G1 X132.3 Y98.726 E23.88937
G1 X132.3 Y96.126 E23.97585
G1 X110.083 Y96.127 E24.71479
G1 X102.7 Y96.126 E24.96035
G1 X102.7 Y98.726 E25.04682
G1 X107 Y98.726 E25.18984
G1 X107.16 Y98.805 E25.19578
G1 X107.2 Y98.926 E25.20002
G1 X107.2 Y136.074 E26.43556
G1 X107.158 Y136.198 E26.43992
G1 X107 Y136.274 E26.44575
G1 X102.7 Y136.274 E26.58877
G1 X102.7 Y138.874 E26.67524
G0 F6000 X103.1 Y138.474
;TYPE:WALL-INNER
G1 F1200 X131.9 Y138.474 E27.63314
G1 X131.9 Y137.574 E27.66307
G1 X131.9 Y136.674 E27.693
G1 X128 Y136.674 E27.82272
G1 X127.724 Y136.608 E27.83216
G1 X127.528 Y136.446 E27.84061
G1 X127.408 Y136.175 E27.85047
G1 X127.4 Y136.074 E27.85384
G1 X127.4 Y98.926 E29.08939
G1 X127.447 Y98.691 E29.09736
G1 X127.521 Y98.563 E29.10228
G1 X127.719 Y98.395 E29.11091
G1 X128 Y98.326 E29.12054
G1 X131.9 Y98.326 E29.25025
G1 X131.9 Y96.526 E29.31012
G1 X110.083 Y96.527 E30.03576
G1 X103.1 Y96.526 E30.26801
G1 X103.1 Y98.326 E30.32788
G1 X107 Y98.326 E30.4576
G1 X107.281 Y98.395 E30.46722
G1 X107.479 Y98.563 E30.47586
G1 X107.598 Y98.866 E30.48668
G1 X107.6 Y98.926 E30.48868
G1 X107.6 Y136.074 E31.72423
G1 X107.544 Y136.329 E31.73291
G1 X107.472 Y136.445 E31.73745
G1 X107.276 Y136.608 E31.74593
G1 X107 Y136.674 E31.75537
G1 X103.1 Y136.674 E31.88508
G1 X103.1 Y138.474 E31.94495
G1 F2700 E26.94495
G0 F6000 X103.11 Y138.474
G0 X110.084 Y138.274
G0 X110.086 Y137.11
G1 F2700 E31.94495
G0 F6000 X110.084 Y136.529
;TYPE:WALL-OUTER
G1 F1200 X109.975 Y136.497 E31.94873
G1 X109.891 Y136.383 E31.95344
G1 X109.884 Y136.074 E31.96372
G1 X109.883 Y98.773 E33.20436
G1 X109.912 Y98.668 E33.20798
G1 X110.048 Y98.575 E33.21346
G1 X110.083 Y98.573 E33.21462
G1 X124.917 Y98.573 E33.70801
G1 X125.021 Y98.601 E33.71159
G1 X125.109 Y98.713 E33.71633
G1 X125.118 Y98.926 E33.72342
G1 X125.117 Y136.33 E34.96748
G1 X125.093 Y136.426 E34.97077
G1 X124.952 Y136.527 E34.97654
G1 X124.917 Y136.529 E34.9777
G1 X110.084 Y136.529 E35.47105
G0 F6000 X110.084 Y136.929
;TYPE:WALL-INNER
G1 F1200 X109.757 Y136.833 E35.48239
G1 X109.557 Y136.618 E35.49215
G1 X109.484 Y136.332 E35.50197
G1 X109.483 Y98.773 E36.75119
G1 X109.571 Y98.459 E36.76203
G1 X109.771 Y98.259 E36.77144
G1 X110.083 Y98.173 E36.78221
G1 X124.917 Y98.173 E37.27559
G1 X125.229 Y98.259 E37.28635
G1 X125.429 Y98.459 E37.29576
G1 X125.517 Y98.773 E37.3066
G1 X125.518 Y136.074 E38.54724
G1 X125.517 Y136.332 E38.55582
G1 X125.444 Y136.618 E38.56564
G1 X125.244 Y136.833 E38.57541
G1 X125.021 Y136.921 E38.58338
G1 X124.917 Y136.929 E38.58685
G1 X110.084 Y136.929 E39.0802
G0 F6000 X110.087 Y137.289
;TYPE:SKIN
G1 F1200 X110.03 Y137.281 E39.08211
G1 X109.613 Y137.16 E39.09655
G1 X109.269 Y136.828 E39.11245
G1 X109.13 Y136.381 E39.12802
G1 X109.124 Y136.071 E39.13834
G1 X109.124 Y98.902 E40.37458
G1 X109.16 Y98.514 E40.38754
G1 X109.264 Y98.273 E40.39627
G1 X109.548 Y97.981 E40.40982
G1 X109.883 Y97.836 E40.42196
G1 X110.088 Y97.813 E40.42882
G1 X124.91 Y97.813 E40.9218
G1 X125.367 Y97.931 E40.9375
G1 X125.709 Y98.237 E40.95277
G1 X125.826 Y98.462 E40.9612
G1 X125.875 Y98.747 E40.97082
G1 X125.878 Y98.928 E40.97684
G1 X125.878 Y136.087 E42.21275
G1 X125.849 Y136.552 E42.22825
G1 X125.76 Y136.789 E42.23667
G1 X125.478 Y137.103 E42.25071
G1 X125.122 Y137.265 E42.26372
G1 X124.912 Y137.289 E42.27075
G1 X110.087 Y137.289 E42.76383
G1 F2700 E37.76383
G0 F6000 X110.088 Y137.026
G0 X109.398 Y136.704
