;FLAVOR:Marlin
;TIME:797
;Filament used: 0.525244m
;Layer height: 0.2
;MINX:94
;MINY:96.5
;MINZ:0.2
;MAXX:141
;MAXY:138.5
;MAXZ:3
;Generated with Cura_SteamEngine 5.0.0
M140 S50
M105
M190 S50
M104 S200
M105
M109 S200
M82 ;absolute extrusion mode
; Ender 3 Custom Start G-code
G92 E0 ; Reset Extruder
G28 ; Home all axes
G1 Z2.0 F3000 ; Move Z Axis up little to prevent scratching of Heat Bed
G1 X0.1 Y20 Z0.3 F5000.0 ; Move to start position
G1 X0.1 Y200.0 Z0.3 F1500.0 E15 ; Draw the first line
G1 X0.4 Y200.0 Z0.3 F5000.0 ; Move to side a little
G1 X0.4 Y20 Z0.3 F1500.0 E30 ; Draw the second line
G92 E0 ; Reset Extruder
G1 Z2.0 F3000 ; Move Z Axis up little to prevent scratching of Heat Bed
G1 X5 Y20 Z0.3 F5000.0 ; Move over to prevent blob squish
G92 E0
G92 E0
G1 F2700 E-5
;LAYER_COUNT:15
;LAYER:0
M107
G0 F6000 X97.198 Y99.764 Z0.2
G0 X94.001 Y108.025
;TYPE:SKIRT
G1 F2700 E0
G1 F1200 X94.01 Y107.36 E0.02212
G1 X94.063 Y106.424 E0.0533
G1 X94.195 Y105.495 E0.08451
G1 X94.406 Y104.581 E0.11571
G1 X94.694 Y103.689 E0.14689
G1 X95.057 Y102.824 E0.17809
G1 X95.492 Y101.993 E0.20928
G1 X95.996 Y101.203 E0.24045
G1 X96.566 Y100.458 E0.27165
G1 X97.198 Y99.764 E0.30287
G1 X97.886 Y99.127 E0.33405
G1 X98.626 Y98.551 E0.36524
G1 X99.412 Y98.039 E0.39644
G1 X100.239 Y97.597 E0.42763
G1 X101.101 Y97.227 E0.45883
G1 X101.991 Y96.931 E0.49003
G1 X102.903 Y96.713 E0.52122
G1 X103.83 Y96.572 E0.5524
G1 X104.701 Y96.513 E0.58144
G1 X105.33 Y96.5 E0.60236
G1 X129.293 Y96.5 E1.39938
G1 X130.149 Y96.511 E1.42785
G1 X131.085 Y96.565 E1.45903
G1 X132.013 Y96.697 E1.49021
G1 X132.927 Y96.909 E1.52142
G1 X133.819 Y97.198 E1.5526
G1 X134.684 Y97.561 E1.5838
G1 X135.514 Y97.997 E1.61499
G1 X136.305 Y98.502 E1.6462
G1 X137.049 Y99.073 E1.67739
G1 X137.742 Y99.705 E1.70859
G1 X138.379 Y100.393 E1.73977
G1 X138.954 Y101.134 E1.77097
G1 X139.465 Y101.92 E1.80215
G1 X139.907 Y102.748 E1.83337
G1 X140.276 Y103.61 E1.86455
G1 X140.571 Y104.5 E1.89574
G1 X140.789 Y105.412 E1.92693
G1 X140.929 Y106.34 E1.95814
G1 X140.987 Y107.201 E1.98684
G1 X141 Y107.83 E2.00777
G1 X140.999 Y126.9 E2.64204
G1 X140.99 Y127.627 E2.66622
G1 X140.939 Y128.564 E2.69743
G1 X140.807 Y129.492 E2.72861
G1 X140.598 Y130.406 E2.75979
G1 X140.311 Y131.299 E2.79099
G1 X139.949 Y132.165 E2.82221
G1 X139.515 Y132.996 E2.85339
G1 X139.011 Y133.787 E2.88459
G1 X138.442 Y134.532 E2.91576
G1 X137.811 Y135.227 E2.94699
G1 X137.124 Y135.865 E2.97817
G1 X136.385 Y136.442 E3.00935
G1 X135.599 Y136.954 E3.04055
G1 X134.773 Y137.397 E3.07173
G1 X133.911 Y137.769 E3.10295
G1 X133.022 Y138.065 E3.13412
G1 X132.11 Y138.285 E3.16532
G1 X131.183 Y138.426 E3.19651
G1 X130.299 Y138.487 E3.22598
G1 X129.67 Y138.5 E3.2469
G1 X105.565 Y138.499 E4.04864
G1 X104.867 Y138.49 E4.07186
G1 X103.931 Y138.438 E4.10304
G1 X103.002 Y138.306 E4.13425
G1 X102.088 Y138.096 E4.16544
G1 X101.195 Y137.809 E4.19664
G1 X100.33 Y137.446 E4.22784
G1 X99.499 Y137.012 E4.25902
G1 X98.708 Y136.508 E4.29021
G1 X97.963 Y135.938 E4.32141
G1 X97.269 Y135.307 E4.35261
G1 X96.632 Y134.62 E4.38377
G1 X96.055 Y133.88 E4.41498
G1 X95.543 Y133.094 E4.44618
G1 X95.1 Y132.267 E4.47738
G1 X94.729 Y131.406 E4.50857
G1 X94.433 Y130.516 E4.53976
G1 X94.214 Y129.604 E4.57096
G1 X94.073 Y128.677 E4.60215
G1 X94.013 Y127.788 E4.63178
G1 X94 Y127.158 E4.65274
G1 X94.001 Y108.025 E5.28911
G0 F6000 X94.401 Y108.031
G1 F1200 X94.41 Y107.366 E5.31123
G1 X94.462 Y106.446 E5.34187
G1 X94.594 Y105.535 E5.37249
G1 X94.805 Y104.639 E5.40311
G1 X95.092 Y103.764 E5.43373
G1 X95.455 Y102.918 E5.46435
G1 X95.889 Y102.106 E5.49498
G1 X96.392 Y101.335 E5.52559
G1 X96.961 Y100.611 E5.55622
G1 X97.589 Y99.939 E5.58681
G1 X98.274 Y99.323 E5.61745
G1 X99.01 Y98.77 E5.64807
G1 X99.791 Y98.282 E5.6787
G1 X100.611 Y97.864 E5.70932
G1 X101.465 Y97.519 E5.73995
G1 X102.345 Y97.249 E5.77056
G1 X103.245 Y97.057 E5.80117
G1 X104.159 Y96.943 E5.83181
G1 X104.712 Y96.913 E5.85023
G1 X105.33 Y96.9 E5.87079
G1 X129.293 Y96.9 E6.6678
G1 X130.143 Y96.911 E6.69607
G1 X131.062 Y96.964 E6.72669
G1 X131.973 Y97.097 E6.75731
G1 X132.869 Y97.308 E6.78793
G1 X133.743 Y97.596 E6.81853
G1 X134.59 Y97.959 E6.84918
G1 X135.401 Y98.394 E6.87979
G1 X136.171 Y98.898 E6.9104
G1 X136.895 Y99.467 E6.94103
G1 X137.567 Y100.097 E6.97167
G1 X138.182 Y100.782 E7.00228
G1 X138.735 Y101.518 E7.0329
G1 X139.222 Y102.299 E7.06352
G1 X139.639 Y103.12 E7.09414
G1 X139.984 Y103.974 E7.12478
G1 X140.253 Y104.854 E7.15538
G1 X140.445 Y105.755 E7.18602
G1 X140.558 Y106.668 E7.21662
G1 X140.596 Y107.532 E7.24539
G1 X140.599 Y126.895 E7.8894
G1 X140.59 Y127.622 E7.91358
G1 X140.539 Y128.541 E7.9442
G1 X140.408 Y129.453 E7.97484
G1 X140.198 Y130.349 E8.00545
G1 X139.912 Y131.224 E8.03607
G1 X139.551 Y132.071 E8.06669
G1 X139.117 Y132.883 E8.09731
G1 X138.615 Y133.655 E8.12794
G1 X138.047 Y134.38 E8.15858
G1 X137.419 Y135.053 E8.18919
G1 X136.735 Y135.669 E8.21981
G1 X136 Y136.223 E8.25042
G1 X135.22 Y136.712 E8.28104
G1 X134.4 Y137.131 E8.31167
G1 X133.547 Y137.477 E8.34228
G1 X132.667 Y137.748 E8.37291
G1 X131.767 Y137.941 E8.40352
G1 X130.853 Y138.056 E8.43416
G1 X130.288 Y138.087 E8.45298
G1 X129.67 Y138.1 E8.47354
G1 X105.57 Y138.099 E9.27511
G1 X104.872 Y138.09 E9.29833
G1 X103.953 Y138.038 E9.32894
G1 X103.042 Y137.907 E9.35956
G1 X102.146 Y137.697 E9.39016
G1 X101.271 Y137.41 E9.42079
G1 X100.424 Y137.048 E9.45143
G1 X99.612 Y136.614 E9.48205
G1 X98.841 Y136.112 E9.51265
G1 X98.116 Y135.544 E9.54328
G1 X97.443 Y134.915 E9.57392
G1 X96.828 Y134.231 E9.60452
G1 X96.274 Y133.496 E9.63513
G1 X95.786 Y132.715 E9.66576
G1 X95.367 Y131.895 E9.69639
G1 X95.021 Y131.042 E9.727
G1 X94.751 Y130.162 E9.75762
G1 X94.558 Y129.261 E9.78827
G1 X94.444 Y128.348 E9.81887
G1 X94.413 Y127.777 E9.83789
G1 X94.4 Y127.158 E9.85848
G1 X94.401 Y108.031 E10.49465
G0 F6000 X94.801 Y108.036
G1 F1200 X94.81 Y107.371 E10.51677
G1 X94.862 Y106.469 E10.54682
G1 X94.994 Y105.576 E10.57684
G1 X95.204 Y104.698 E10.60687
G1 X95.491 Y103.841 E10.63693
G1 X95.853 Y103.014 E10.66695
G1 X96.286 Y102.222 E10.69697
G1 X96.788 Y101.471 E10.72702
G1 X97.355 Y100.767 E10.75708
G1 X97.981 Y100.117 E10.7871
G1 X98.662 Y99.524 E10.81713
G1 X99.394 Y98.994 E10.84719
G1 X100.169 Y98.531 E10.87722
G1 X100.982 Y98.138 E10.90725
G1 X101.827 Y97.818 E10.9373
G1 X102.696 Y97.575 E10.96732
G1 X103.584 Y97.409 E10.99736
G1 X104.723 Y97.313 E11.03538
G1 X105.33 Y97.3 E11.05557
G1 X129.293 Y97.3 E11.85259
G1 X130.137 Y97.311 E11.88066
G1 X131.039 Y97.364 E11.91071
G1 X131.932 Y97.496 E11.94074
G1 X132.81 Y97.707 E11.97077
G1 X133.666 Y97.995 E12.00081
G1 X134.493 Y98.357 E12.03084
G1 X135.285 Y98.792 E12.06089
G1 X136.036 Y99.294 E12.09093
G1 X136.739 Y99.861 E12.12097
G1 X137.389 Y100.488 E12.15101
G1 X137.981 Y101.17 E12.18105
G1 X138.511 Y101.901 E12.21108
G1 X138.973 Y102.677 E12.24112
G1 X139.366 Y103.49 E12.27115
G1 X139.684 Y104.335 E12.30118
G1 X139.927 Y105.205 E12.33122
G1 X140.092 Y106.093 E12.36126
G1 X140.187 Y107.223 E12.39898
G1 X140.2 Y107.83 E12.41917
G1 X140.199 Y126.89 E13.05311
G1 X140.19 Y127.617 E13.0773
G1 X140.139 Y128.519 E13.10734
G1 X140.008 Y129.413 E13.1374
G1 X139.799 Y130.291 E13.16741
G1 X139.513 Y131.148 E13.19746
G1 X139.152 Y131.976 E13.22751
G1 X138.72 Y132.768 E13.25751
G1 X138.219 Y133.52 E13.28757
G1 X137.653 Y134.224 E13.31761
G1 X137.028 Y134.875 E13.34763
G1 X136.347 Y135.469 E13.37768
G1 X135.616 Y136 E13.40773
G1 X134.842 Y136.464 E13.43775
G1 X134.029 Y136.858 E13.4678
G1 X133.185 Y137.178 E13.49782
G1 X132.315 Y137.423 E13.52788
G1 X131.428 Y137.589 E13.55789
G1 X130.277 Y137.687 E13.59631
G1 X129.67 Y137.7 E13.61651
G1 X105.575 Y137.699 E14.41791
G1 X104.877 Y137.69 E14.44113
G1 X103.976 Y137.639 E14.47114
G1 X103.082 Y137.507 E14.5012
G1 X102.204 Y137.298 E14.53122
G1 X101.347 Y137.011 E14.56128
G1 X100.52 Y136.65 E14.59129
G1 X99.727 Y136.217 E14.62134
G1 X98.976 Y135.716 E14.65137
G1 X98.272 Y135.15 E14.68141
G1 X97.621 Y134.524 E14.71145
G1 X97.028 Y133.843 E14.74149
G1 X96.498 Y133.112 E14.77152
G1 X96.034 Y132.337 E14.80156
G1 X95.64 Y131.524 E14.83161
G1 X95.32 Y130.68 E14.86163
G1 X95.076 Y129.81 E14.89168
G1 X94.91 Y128.922 E14.92173
G1 X94.813 Y127.767 E14.96028
G1 X94.8 Y127.158 E14.98054
G1 X94.801 Y108.036 E15.61654
G1 F2700 E10.61654
;MESH:C.stl
G0 F6000 X104.335 Y108.036
G0 X105.43 Y108.036
G0 X105.58 Y126.92
G1 F2700 E15.61654
G0 F6000 X105.2 Y127.3
;TYPE:WALL-OUTER
G1 F1200 X129.8 Y127.3 E16.43474
G1 X129.8 Y110.593 E16.99042
G1 X129.8 Y107.7 E17.08664
G1 X105.201 Y107.701 E17.9048
G1 X105.2 Y127.3 E18.55667
G0 F6000 X105.6 Y126.9
;TYPE:WALL-INNER
G1 F1200 X129.4 Y126.9 E19.34826
G1 X129.4 Y110.593 E19.89063
G1 X129.4 Y108.1 E19.97355
G1 X105.601 Y108.101 E20.76511
G1 X105.6 Y126.9 E21.39037
G1 F2700 E16.39037
G0 F6000 X105.61 Y126.9
G0 X111.01 Y127.07
G0 X111.304 Y124.114
G0 X111.01 Y123.91
G1 F2700 E21.39037
G0 F6000 X111.068 Y123.506
;TYPE:WALL-OUTER
G1 F1200 X110.627 Y123.375 E21.40567
G1 X110.221 Y123.162 E21.42092
G1 X109.861 Y122.872 E21.43629
G1 X109.566 Y122.517 E21.45165
G1 X109.347 Y122.113 E21.46693
G1 X109.208 Y121.675 E21.48221
G1 X109.159 Y121.216 E21.49757
G1 X109.199 Y120.761 E21.51276
G1 X109.331 Y120.313 E21.52829
G1 X109.541 Y119.911 E21.54338
G1 X109.832 Y119.547 E21.55888
G1 X110.184 Y119.254 E21.57411
G1 X110.586 Y119.033 E21.58937
G1 X111.023 Y118.893 E21.60463
G1 X111.347 Y118.857 E21.61547
G1 X111.944 Y118.883 E21.63535
G1 X112.394 Y119.015 E21.65095
G1 X112.663 Y119.154 E21.66102
G1 X113.039 Y119.419 E21.67632
G1 X113.368 Y119.765 E21.6922
G1 X113.621 Y120.173 E21.70816
G1 X113.766 Y120.557 E21.72182
G1 X113.848 Y121.011 E21.73716
G1 X113.822 Y121.638 E21.75803
G1 X113.694 Y122.071 E21.77305
G1 X113.481 Y122.48 E21.78839
G1 X113.191 Y122.84 E21.80376
G1 X112.834 Y123.14 E21.81927
G1 X112.436 Y123.357 E21.83435
G1 X111.991 Y123.498 E21.84988
G1 X111.531 Y123.547 E21.86526
G1 X111.068 Y123.506 E21.88072
G0 F6000 X111.028 Y123.904
;TYPE:WALL-INNER
G1 F1200 X110.51 Y123.757 E21.89863
G1 X110.032 Y123.515 E21.91645
G1 X109.608 Y123.182 E21.93438
G1 X109.256 Y122.77 E21.95241
G1 X108.994 Y122.301 E21.97027
G1 X108.826 Y121.793 E21.98807
G1 X108.761 Y121.255 E22.00609
G1 X108.801 Y120.723 E22.02384
G1 X108.948 Y120.197 E22.042
G1 X109.188 Y119.723 E22.05967
G1 X109.521 Y119.295 E22.07771
G1 X109.931 Y118.944 E22.09566
G1 X110.396 Y118.681 E22.11343
G1 X110.904 Y118.511 E22.13125
G1 X111.307 Y118.459 E22.14476
G1 X111.561 Y118.445 E22.15322
G1 X111.982 Y118.485 E22.16729
G1 X112.51 Y118.632 E22.18552
G1 X112.852 Y118.801 E22.19821
G1 X113.074 Y118.93 E22.20675
G1 X113.41 Y119.206 E22.22121
G1 X113.676 Y119.51 E22.23464
G1 X113.973 Y119.983 E22.25322
G1 X114.149 Y120.441 E22.26954
G1 X114.217 Y120.695 E22.27828
G1 X114.246 Y120.971 E22.28751
G1 X114.262 Y121.246 E22.29668
G1 X114.22 Y121.677 E22.31108
G1 X114.077 Y122.187 E22.3287
G1 X113.835 Y122.667 E22.34658
G1 X113.5 Y123.094 E22.36463
G1 X113.089 Y123.448 E22.38267
G1 X112.624 Y123.71 E22.40042
G1 X112.109 Y123.88 E22.41846
G1 X111.571 Y123.945 E22.43648
G1 X111.028 Y123.904 E22.45459
G1 F2700 E17.45459
G0 F6000 X111.026 Y123.913
G0 X112.038 Y123.846
G0 X112.785 Y123.578
G0 X113.427 Y123.1
G0 X113.895 Y122.469
G0 X114.046 Y122.046
G0 X114.4 Y120.695
G0 X121.554 Y116.33
G0 X122.648 Y116.357
G1 F2700 E22.45459
G0 F6000 X122.626 Y115.947
;TYPE:WALL-OUTER
G1 F1200 X122.172 Y115.907 E22.46975
G1 X121.723 Y115.775 E22.48532
G1 X121.457 Y115.638 E22.49527
G1 X121.083 Y115.376 E22.51046
G1 X120.734 Y115.006 E22.52738
G1 X120.502 Y114.629 E22.5421
G1 X120.348 Y114.223 E22.55654
G1 X120.27 Y113.784 E22.57137
G1 X120.253 Y113.576 E22.57831
G1 X120.295 Y113.152 E22.59248
G1 X120.425 Y112.713 E22.60771
G1 X120.639 Y112.305 E22.62303
G1 X120.928 Y111.946 E22.63836
G1 X121.284 Y111.65 E22.65376
G1 X121.681 Y111.433 E22.66881
G1 X122.118 Y111.293 E22.68407
G1 X122.586 Y111.243 E22.69973
G1 X123.04 Y111.283 E22.71489
G1 X123.482 Y111.413 E22.73021
G1 X123.895 Y111.628 E22.7457
G1 X124.25 Y111.914 E22.76086
G1 X124.549 Y112.27 E22.77632
G1 X124.77 Y112.675 E22.79167
G1 X124.909 Y113.115 E22.80701
G1 X124.958 Y113.567 E22.82213
G1 X124.918 Y114.028 E22.83753
G1 X124.786 Y114.477 E22.85309
G1 X124.572 Y114.886 E22.86844
G1 X124.287 Y115.239 E22.88353
G1 X123.934 Y115.536 E22.89888
G1 X123.524 Y115.76 E22.91442
G1 X123.086 Y115.898 E22.92969
G1 X122.626 Y115.947 E22.94508
G0 F6000 X122.666 Y116.345
;TYPE:WALL-INNER
G1 F1200 X122.132 Y116.305 E22.96289
G1 X121.607 Y116.158 E22.98102
G1 X121.268 Y115.991 E22.99359
G1 X121.045 Y115.861 E23.00217
G1 X120.706 Y115.583 E23.01676
G1 X120.426 Y115.261 E23.03095
G1 X120.149 Y114.818 E23.04833
G1 X119.966 Y114.34 E23.06535
G1 X119.898 Y114.084 E23.07416
G1 X119.853 Y113.623 E23.08957
G1 X119.897 Y113.112 E23.10662
G1 X120.043 Y112.596 E23.12446
G1 X120.286 Y112.116 E23.14235
G1 X120.618 Y111.693 E23.16024
G1 X121.031 Y111.34 E23.17831
G1 X121.493 Y111.08 E23.19594
G1 X121.999 Y110.911 E23.21369
G1 X122.547 Y110.845 E23.23204
G1 X123.078 Y110.885 E23.24976
G1 X123.598 Y111.03 E23.26771
G1 X124.083 Y111.274 E23.28577
G1 X124.504 Y111.605 E23.30358
G1 X124.858 Y112.016 E23.32162
G1 X125.123 Y112.487 E23.3396
G1 X125.291 Y112.997 E23.35746
G1 X125.356 Y113.527 E23.37522
G1 X125.316 Y114.066 E23.39319
G1 X125.169 Y114.593 E23.41139
G1 X124.925 Y115.074 E23.42933
G1 X124.597 Y115.493 E23.44703
G1 X124.188 Y115.844 E23.46495
G1 X123.713 Y116.112 E23.48309
G1 X123.203 Y116.28 E23.50095
G1 X122.666 Y116.345 E23.51894
G0 F6000 X122.546 Y116.705
;TYPE:SKIN
G1 F1200 X122.506 Y116.704 E23.52027
G1 X121.943 Y116.634 E23.53914
G1 X121.906 Y116.626 E23.5404
G1 X121.363 Y116.449 E23.5594
G1 X120.903 Y116.2 E23.57679
G1 X120.603 Y115.963 E23.58951
G1 X120.365 Y115.752 E23.60009
G1 X120.028 Y115.343 E23.61772
G1 X119.831 Y114.989 E23.63119
G1 X119.708 Y114.734 E23.64061
G1 X119.553 Y114.215 E23.65862
G1 X119.513 Y113.852 E23.67077
G1 X119.496 Y113.522 E23.68176
G1 X119.497 Y113.496 E23.68262
G1 X119.568 Y112.923 E23.70183
G1 X119.577 Y112.884 E23.70316
G1 X119.755 Y112.349 E23.72191
G1 X119.771 Y112.314 E23.72319
G1 X120.052 Y111.82 E23.7421
G1 X120.074 Y111.788 E23.74339
G1 X120.451 Y111.352 E23.76256
G1 X120.479 Y111.326 E23.76383
G1 X120.928 Y110.975 E23.78278
G1 X120.963 Y110.953 E23.78416
G1 X121.48 Y110.698 E23.80333
G1 X121.514 Y110.685 E23.80454
G1 X122.069 Y110.53 E23.82371
G1 X122.588 Y110.483 E23.84104
G1 X122.704 Y110.487 E23.8449
G1 X123.269 Y110.556 E23.86383
G1 X123.307 Y110.565 E23.86513
G1 X123.848 Y110.744 E23.88409
G1 X123.883 Y110.759 E23.88535
G1 X124.383 Y111.041 E23.90444
G1 X124.416 Y111.065 E23.9058
G1 X124.842 Y111.436 E23.92459
G1 X124.867 Y111.462 E23.92579
G1 X125.219 Y111.904 E23.94458
G1 X125.239 Y111.937 E23.94587
G1 X125.499 Y112.456 E23.96517
G1 X125.513 Y112.492 E23.96646
G1 X125.667 Y113.044 E23.98552
G1 X125.674 Y113.083 E23.98684
G1 X125.716 Y113.658 E24.00601
G1 X125.644 Y114.267 E24.02641
G1 X125.456 Y114.839 E24.04644
G1 X125.441 Y114.875 E24.04773
G1 X125.158 Y115.373 E24.06678
G1 X125.136 Y115.406 E24.0681
G1 X124.764 Y115.833 E24.08694
G1 X124.737 Y115.859 E24.08819
G1 X124.288 Y116.21 E24.10714
G1 X124.254 Y116.231 E24.10847
G1 X123.739 Y116.49 E24.12764
G1 X123.703 Y116.504 E24.12893
G1 X123.136 Y116.661 E24.1485
G1 X122.546 Y116.705 E24.16817
G1 F2700 E19.16817
G0 F6000 X122.556 Y116.446
G0 X121.554 Y116.33
G0 X114.4 Y120.695
G0 X114.012 Y122.221
G0 X113.6 Y122.91
G0 X113.012 Y123.443
G0 X112.302 Y123.779
G0 X110.887 Y123.977
G1 F2700 E24.16817
G0 F6000 X110.836 Y124.232
G1 F1200 X110.797 Y124.223 E24.16951
