;FLAVOR:Marlin
;TIME:4705
;Filament used: 3.2241m
;Layer height: 0.2
;MINX:99
;MINY:91.5
;MINZ:0.2
;MAXX:136
;MAXY:143.5
;MAXZ:25
;Generated with Cura_SteamEngine 5.0.0
M140 S50
M105
M190 S50
M104 S200
M105
M109 S200
M82 ;absolute extrusion mode
; Ender 3 Custom Start G-code
G92 E0 ; Reset Extruder
G28 ; Home all axes
G1 Z2.0 F3000 ; Move Z Axis up little to prevent scratching of Heat Bed
G1 X0.1 Y20 Z0.3 F5000.0 ; Move to start position
G1 X0.1 Y200.0 Z0.3 F1500.0 E15 ; Draw the first line
G1 X0.4 Y200.0 Z0.3 F5000.0 ; Move to side a little
G1 X0.4 Y20 Z0.3 F1500.0 E30 ; Draw the second line
G92 E0 ; Reset Extruder
G1 Z2.0 F3000 ; Move Z Axis up little to prevent scratching of Heat Bed
G1 X5 Y20 Z0.3 F5000.0 ; Move over to prevent blob squish
G92 E0
G92 E0
G1 F2700 E-5
;LAYER_COUNT:125
;LAYER:0
M107
G0 F6000 X102.198 Y94.764 Z0.2
G0 X99.001 Y103.025
;TYPE:SKIRT
G1 F2700 E0
G1 F1200 X99.01 Y102.36 E0.02212
G1 X99.063 Y101.424 E0.0533
G1 X99.195 Y100.495 E0.08451
G1 X99.406 Y99.581 E0.11571
G1 X99.694 Y98.689 E0.14689
G1 X100.057 Y97.824 E0.17809
G1 X100.492 Y96.993 E0.20928
G1 X100.996 Y96.203 E0.24045
G1 X101.566 Y95.458 E0.27165
G1 X102.198 Y94.764 E0.30287
G1 X102.886 Y94.127 E0.33405
G1 X103.626 Y93.551 E0.36524
G1 X104.412 Y93.039 E0.39644
G1 X105.239 Y92.597 E0.42763
G1 X106.101 Y92.227 E0.45883
G1 X106.991 Y91.931 E0.49003
G1 X107.903 Y91.713 E0.52122
G1 X108.83 Y91.572 E0.5524
G1 X109.701 Y91.513 E0.58144
G1 X110.33 Y91.5 E0.60236
G1 X124.293 Y91.5 E1.06677
G1 X125.149 Y91.511 E1.09525
G1 X126.085 Y91.565 E1.12643
G1 X127.013 Y91.697 E1.15761
G1 X127.927 Y91.909 E1.18881
G1 X128.819 Y92.198 E1.22
G1 X129.684 Y92.561 E1.2512
G1 X130.514 Y92.997 E1.28238
G1 X131.305 Y93.502 E1.3136
G1 X132.049 Y94.073 E1.34479
G1 X132.742 Y94.705 E1.37599
G1 X133.379 Y95.393 E1.40717
G1 X133.954 Y96.134 E1.43837
G1 X134.465 Y96.92 E1.46955
G1 X134.907 Y97.748 E1.50077
G1 X135.276 Y98.61 E1.53195
G1 X135.571 Y99.5 E1.56314
G1 X135.789 Y100.412 E1.59432
G1 X135.929 Y101.34 E1.62554
G1 X135.987 Y102.201 E1.65424
G1 X136 Y102.83 E1.67517
G1 X135.999 Y131.915 E2.64254
G1 X135.989 Y132.642 E2.66672
G1 X135.936 Y133.579 E2.69793
G1 X135.804 Y134.507 E2.72911
G1 X135.593 Y135.421 E2.76031
G1 X135.304 Y136.313 E2.7915
G1 X134.941 Y137.178 E2.8227
G1 X134.506 Y138.009 E2.85389
G1 X134.001 Y138.799 E2.88508
G1 X133.431 Y139.544 E2.91628
G1 X132.8 Y140.238 E2.94748
G1 X132.111 Y140.875 E2.97869
G1 X131.371 Y141.451 E3.00988
G1 X130.585 Y141.962 E3.04106
G1 X129.758 Y142.404 E3.07224
G1 X128.896 Y142.774 E3.10344
G1 X128.006 Y143.069 E3.13463
G1 X127.094 Y143.288 E3.16583
G1 X126.167 Y143.428 E3.19701
G1 X125.299 Y143.487 E3.22594
G1 X124.67 Y143.5 E3.24687
G1 X110.565 Y143.499 E3.716
G1 X109.867 Y143.49 E3.73922
G1 X108.931 Y143.438 E3.7704
G1 X108.002 Y143.306 E3.80161
G1 X107.088 Y143.096 E3.8328
G1 X106.195 Y142.809 E3.864
G1 X105.33 Y142.446 E3.8952
G1 X104.499 Y142.012 E3.92638
G1 X103.708 Y141.508 E3.95758
G1 X102.963 Y140.938 E3.98878
G1 X102.269 Y140.307 E4.01997
G1 X101.632 Y139.62 E4.05113
G1 X101.055 Y138.88 E4.08234
G1 X100.543 Y138.094 E4.11354
G1 X100.1 Y137.267 E4.14475
G1 X99.729 Y136.406 E4.17593
G1 X99.433 Y135.516 E4.20713
G1 X99.214 Y134.604 E4.23832
G1 X99.073 Y133.677 E4.26951
G1 X99.013 Y132.788 E4.29914
G1 X99 Y132.158 E4.3201
G1 X99.001 Y103.025 E5.28907
G0 F6000 X99.401 Y103.031
G1 F1200 X99.41 Y102.366 E5.31119
G1 X99.462 Y101.446 E5.34184
G1 X99.594 Y100.535 E5.37245
G1 X99.805 Y99.639 E5.40307
G1 X100.092 Y98.764 E5.4337
G1 X100.455 Y97.918 E5.46432
G1 X100.889 Y97.106 E5.49494
G1 X101.392 Y96.335 E5.52556
G1 X101.961 Y95.611 E5.55618
G1 X102.589 Y94.939 E5.58678
G1 X103.274 Y94.323 E5.61742
G1 X104.01 Y93.77 E5.64804
G1 X104.791 Y93.282 E5.67867
G1 X105.611 Y92.864 E5.70928
G1 X106.465 Y92.519 E5.73991
G1 X107.345 Y92.249 E5.77053
G1 X108.245 Y92.057 E5.80114
G1 X109.159 Y91.943 E5.83177
G1 X109.712 Y91.913 E5.85019
G1 X110.33 Y91.9 E5.87075
G1 X124.293 Y91.9 E6.33516
G1 X125.143 Y91.911 E6.36344
G1 X126.062 Y91.964 E6.39405
G1 X126.973 Y92.097 E6.42467
G1 X127.869 Y92.308 E6.45529
G1 X128.743 Y92.596 E6.4859
G1 X129.59 Y92.959 E6.51655
G1 X130.401 Y93.394 E6.54716
G1 X131.171 Y93.898 E6.57776
G1 X131.895 Y94.467 E6.60839
G1 X132.567 Y95.097 E6.63903
G1 X133.182 Y95.782 E6.66965
G1 X133.735 Y96.518 E6.70027
G1 X134.222 Y97.299 E6.73088
G1 X134.639 Y98.12 E6.76151
G1 X134.984 Y98.974 E6.79214
G1 X135.253 Y99.854 E6.82275
G1 X135.445 Y100.755 E6.85339
G1 X135.558 Y101.668 E6.88398
G1 X135.596 Y102.532 E6.91275
G1 X135.599 Y131.91 E7.88986
G1 X135.589 Y132.637 E7.91405
G1 X135.536 Y133.556 E7.94466
G1 X135.404 Y134.467 E7.97528
G1 X135.193 Y135.363 E8.0059
G1 X134.906 Y136.238 E8.03652
G1 X134.543 Y137.084 E8.06714
G1 X134.109 Y137.896 E8.09777
G1 X133.605 Y138.667 E8.1284
G1 X133.037 Y139.391 E8.15901
G1 X132.408 Y140.063 E8.18962
G1 X131.723 Y140.678 E8.22024
G1 X130.987 Y141.231 E8.25086
G1 X130.206 Y141.719 E8.28149
G1 X129.386 Y142.137 E8.3121
G1 X128.532 Y142.482 E8.34274
G1 X127.652 Y142.751 E8.37334
G1 X126.751 Y142.944 E8.40399
G1 X125.838 Y143.057 E8.43459
G1 X125.288 Y143.087 E8.45291
G1 X124.67 Y143.1 E8.47347
G1 X110.57 Y143.099 E8.94244
G1 X109.872 Y143.09 E8.96565
G1 X108.953 Y143.038 E8.99627
G1 X108.042 Y142.907 E9.02688
G1 X107.146 Y142.697 E9.05749
G1 X106.271 Y142.41 E9.08812
G1 X105.424 Y142.048 E9.11875
G1 X104.612 Y141.614 E9.14938
G1 X103.841 Y141.112 E9.17998
G1 X103.116 Y140.544 E9.21061
G1 X102.443 Y139.915 E9.24125
G1 X101.828 Y139.231 E9.27184
G1 X101.274 Y138.496 E9.30245
G1 X100.786 Y137.715 E9.33309
G1 X100.367 Y136.895 E9.36371
G1 X100.021 Y136.042 E9.39433
G1 X99.751 Y135.162 E9.42494
G1 X99.558 Y134.261 E9.45559
G1 X99.444 Y133.348 E9.48619
G1 X99.413 Y132.777 E9.50521
G1 X99.4 Y132.158 E9.52581
G1 X99.401 Y103.031 E10.49457
G0 F6000 X99.801 Y103.036
G1 F1200 X99.81 Y102.371 E10.51669
G1 X99.862 Y101.469 E10.54674
G1 X99.994 Y100.576 E10.57677
G1 X100.204 Y99.698 E10.60679
G1 X100.491 Y98.841 E10.63685
G1 X100.853 Y98.014 E10.66688
G1 X101.286 Y97.222 E10.6969
G1 X101.788 Y96.471 E10.72695
G1 X102.355 Y95.767 E10.75701
G1 X102.981 Y95.117 E10.78703
G1 X103.662 Y94.524 E10.81706
G1 X104.394 Y93.994 E10.84712
G1 X105.169 Y93.531 E10.87714
G1 X105.982 Y93.138 E10.90718
G1 X106.827 Y92.818 E10.93723
G1 X107.696 Y92.575 E10.96724
G1 X108.584 Y92.409 E10.99729
G1 X109.723 Y92.313 E11.03531
G1 X110.33 Y92.3 E11.0555
G1 X124.293 Y92.3 E11.51991
G1 X125.137 Y92.311 E11.54799
G1 X126.039 Y92.364 E11.57804
G1 X126.932 Y92.496 E11.60806
G1 X127.81 Y92.707 E11.6381
G1 X128.666 Y92.995 E11.66814
G1 X129.493 Y93.357 E11.69816
G1 X130.285 Y93.792 E11.72822
G1 X131.036 Y94.294 E11.75826
G1 X131.739 Y94.861 E11.7883
G1 X132.389 Y95.488 E11.81834
G1 X132.981 Y96.17 E11.84837
G1 X133.511 Y96.901 E11.87841
G1 X133.973 Y97.677 E11.90844
G1 X134.366 Y98.49 E11.93848
G1 X134.684 Y99.335 E11.96851
G1 X134.927 Y100.205 E11.99855
G1 X135.092 Y101.093 E12.02859
G1 X135.187 Y102.223 E12.06631
G1 X135.2 Y102.83 E12.0865
G1 X135.199 Y131.904 E13.05351
G1 X135.189 Y132.631 E13.07769
G1 X135.137 Y133.533 E13.10774
G1 X135.005 Y134.426 E13.13776
G1 X134.794 Y135.305 E13.16783
G1 X134.507 Y136.161 E13.19786
G1 X134.145 Y136.988 E13.22788
G1 X133.711 Y137.78 E13.25792
G1 X133.209 Y138.531 E13.28797
G1 X132.643 Y139.234 E13.31798
G1 X132.016 Y139.885 E13.34805
G1 X131.335 Y140.477 E13.37806
G1 X130.604 Y141.007 E13.40809
G1 X129.828 Y141.47 E13.43814
G1 X129.015 Y141.863 E13.46818
G1 X128.17 Y142.183 E13.49823
G1 X127.301 Y142.426 E13.52824
G1 X126.413 Y142.591 E13.55828
G1 X125.277 Y142.687 E13.5962
G1 X124.67 Y142.7 E13.6164
G1 X110.575 Y142.699 E14.0852
G1 X109.877 Y142.69 E14.10841
G1 X108.976 Y142.639 E14.13843
G1 X108.082 Y142.507 E14.16849
G1 X107.204 Y142.298 E14.1985
G1 X106.347 Y142.011 E14.22856
G1 X105.52 Y141.65 E14.25858
G1 X104.727 Y141.217 E14.28863
G1 X103.976 Y140.716 E14.31865
G1 X103.272 Y140.15 E14.3487
G1 X102.621 Y139.524 E14.37874
G1 X102.028 Y138.843 E14.40877
G1 X101.498 Y138.112 E14.4388
G1 X101.034 Y137.337 E14.46885
G1 X100.64 Y136.524 E14.49889
G1 X100.32 Y135.68 E14.52892
G1 X100.076 Y134.81 E14.55897
G1 X99.91 Y133.922 E14.58902
G1 X99.813 Y132.767 E14.62757
G1 X99.8 Y132.158 E14.64783
G1 X99.801 Y103.036 E15.61643
G1 F2700 E10.61643
;MESH:B.stl
G0 F6000 X114.825 Y108.695
G0 X115.998 Y109.747
G0 X116.58 Y110.021
G0 X117.539 Y110.263
G1 F2700 E15.61643
G0 F6000 X117.52 Y109.853
;TYPE:WALL-OUTER
G1 F1200 X117.057 Y109.812 E15.63189
G1 X116.616 Y109.68 E15.6472
G1 X116.21 Y109.467 E15.66245
G1 X115.85 Y109.177 E15.67782
G1 X115.555 Y108.822 E15.69318
G1 X115.335 Y108.419 E15.70845
G1 X115.197 Y107.981 E15.72372
G1 X115.148 Y107.521 E15.73911
G1 X115.189 Y107.057 E15.7546
G1 X115.322 Y106.614 E15.76998
G1 X115.534 Y106.211 E15.78513
G1 X115.821 Y105.851 E15.80044
G1 X116.178 Y105.555 E15.81587
G1 X116.581 Y105.336 E15.83112
G1 X117.02 Y105.197 E15.84644
G1 X117.479 Y105.148 E15.86179
G1 X117.941 Y105.189 E15.87722
G1 X118.384 Y105.321 E15.89259
G1 X118.791 Y105.534 E15.90787
G1 X119.149 Y105.822 E15.92315
G1 X119.444 Y106.177 E15.9385
G1 X119.665 Y106.58 E15.95379
G1 X119.668 Y106.587 E15.95404
G1 X119.803 Y107.02 E15.96913
G1 X119.853 Y107.479 E15.98449
G1 X119.811 Y107.941 E15.99992
G1 X119.681 Y108.381 E16.01517
G1 X119.467 Y108.79 E16.03053
G1 X119.178 Y109.149 E16.04586
G1 X118.822 Y109.445 E16.06126
G1 X118.421 Y109.665 E16.07647
G1 X117.98 Y109.804 E16.09185
G1 X117.52 Y109.853 E16.10723
G0 F6000 X117.559 Y110.251
;TYPE:WALL-INNER
G1 F1200 X117.019 Y110.21 E16.12525
G1 X116.498 Y110.062 E16.14326
G1 X116.022 Y109.82 E16.16102
G1 X115.597 Y109.487 E16.17898
G1 X115.245 Y109.074 E16.19703
G1 X114.983 Y108.608 E16.21481
G1 X114.815 Y108.098 E16.23267
G1 X114.75 Y107.56 E16.25069
G1 X114.791 Y107.019 E16.26874
G1 X114.94 Y106.496 E16.28682
G1 X115.181 Y106.022 E16.30451
G1 X115.51 Y105.599 E16.32233
G1 X115.926 Y105.245 E16.3405
G1 X116.393 Y104.983 E16.35831
G1 X116.902 Y104.815 E16.37614
G1 X117.44 Y104.75 E16.39416
G1 X117.98 Y104.791 E16.41217
G1 X118.502 Y104.939 E16.43022
G1 X118.979 Y105.181 E16.44801
G1 X119.402 Y105.512 E16.46588
G1 X119.754 Y105.924 E16.4839
G1 X120.017 Y106.391 E16.50173
G1 X120.028 Y106.412 E16.50251
G1 X120.186 Y106.904 E16.5197
G1 X120.251 Y107.439 E16.53763
G1 X120.209 Y107.981 E16.55571
G1 X120.064 Y108.497 E16.57353
G1 X119.82 Y108.978 E16.59147
G1 X119.488 Y109.402 E16.60938
G1 X119.075 Y109.755 E16.62745
G1 X118.61 Y110.017 E16.64521
G1 X118.097 Y110.186 E16.66317
G1 X117.559 Y110.251 E16.68119
G1 F2700 E11.68119
G0 F6000 X117.558 Y110.262
G0 X117.494 Y124.567
G0 X119.002 Y125.253
G0 X119.589 Y125.786
G0 X119.997 Y126.466
G0 X120.189 Y127.234
G0 X120.151 Y128.025
G0 X119.885 Y128.772
G0 X119.411 Y129.411
G0 X118.774 Y129.884
G0 X118.352 Y130.035
G0 X117.54 Y130.263
G1 F2700 E16.68119
G0 F6000 X117.521 Y129.853
;TYPE:WALL-OUTER
G1 F1200 X117.057 Y129.812 E16.69669
G1 X116.616 Y129.68 E16.712
G1 X116.21 Y129.467 E16.72725
G1 X115.85 Y129.177 E16.74262
G1 X115.555 Y128.822 E16.75797
G1 X115.336 Y128.42 E16.7732
G1 X115.197 Y127.981 E16.78852
G1 X115.148 Y127.521 E16.8039
G1 X115.189 Y127.06 E16.8193
G1 X115.322 Y126.615 E16.83474
G1 X115.534 Y126.211 E16.84992
G1 X115.821 Y125.852 E16.86521
G1 X116.178 Y125.555 E16.88065
G1 X116.58 Y125.336 E16.89588
G1 X117.02 Y125.197 E16.91122
G1 X117.48 Y125.148 E16.92661
G1 X117.94 Y125.189 E16.94197
G1 X118.384 Y125.321 E16.95738
G1 X118.79 Y125.534 E16.97263
G1 X119.149 Y125.821 E16.98791
G1 X119.444 Y126.177 E17.00329
G1 X119.665 Y126.58 E17.01858
G1 X119.803 Y127.02 E17.03392
G1 X119.853 Y127.478 E17.04924
G1 X119.811 Y127.94 E17.06467
G1 X119.68 Y128.384 E17.08007
G1 X119.467 Y128.79 E17.09531
G1 X119.178 Y129.149 E17.11064
G1 X118.822 Y129.445 E17.12604
G1 X118.421 Y129.665 E17.14125
G1 X117.98 Y129.804 E17.15663
G1 X117.521 Y129.853 E17.17199
G0 F6000 X117.56 Y130.251
;TYPE:WALL-INNER
G1 F1200 X117.019 Y130.21 E17.19003
G1 X116.498 Y130.062 E17.20805
G1 X116.022 Y129.82 E17.22581
G1 X115.597 Y129.487 E17.24376
G1 X115.245 Y129.074 E17.26181
G1 X114.983 Y128.609 E17.27957
G1 X114.815 Y128.099 E17.29742
G1 X114.75 Y127.56 E17.31548
G1 X114.791 Y127.021 E17.33346
G1 X114.94 Y126.497 E17.35158
G1 X115.181 Y126.022 E17.3693
G1 X115.51 Y125.6 E17.38709
G1 X115.926 Y125.245 E17.40528
G1 X116.391 Y124.983 E17.42303
G1 X116.902 Y124.815 E17.44092
G1 X117.441 Y124.75 E17.45898
G1 X117.979 Y124.791 E17.47693
G1 X118.501 Y124.939 E17.49497
G1 X118.979 Y125.182 E17.51281
G1 X119.401 Y125.511 E17.53061
G1 X119.754 Y125.924 E17.54868
G1 X120.017 Y126.391 E17.5665
G1 X120.186 Y126.904 E17.58447
G1 X120.251 Y127.438 E17.60236
G1 X120.209 Y127.98 E17.62044
G1 X120.063 Y128.5 E17.6384
G1 X119.819 Y128.979 E17.65628
G1 X119.488 Y129.402 E17.67415
G1 X119.075 Y129.755 E17.69222
G1 X118.61 Y130.017 E17.70997
G1 X118.097 Y130.186 E17.72793
G1 X117.56 Y130.251 E17.74593
G1 F2700 E12.74593
G0 F6000 X117.559 Y130.262
G0 X116.445 Y130.235
G0 X113.901 Y131.699
G0 X110.58 Y131.92
G1 F2700 E17.74593
G0 F6000 X110.2 Y132.3
;TYPE:WALL-OUTER
G1 F1200 X124.8 Y132.3 E18.23152
G1 X124.8 Y118.448 E18.69224
G1 X124.8 Y118.396 E18.69397
G1 X124.667 Y118.368 E18.69849
G1 X124.463 Y118.243 E18.70645
G1 X124.259 Y117.953 E18.71824
G1 X124.186 Y117.648 E18.72867
G1 X124.214 Y117.397 E18.73707
G1 X124.342 Y117.13 E18.74692
G1 X124.514 Y116.956 E18.75506
G1 X124.749 Y116.846 E18.76369
G1 X124.8 Y116.842 E18.76539
G1 X124.8 Y102.7 E19.23576
G1 X110.2 Y102.7 E19.72135
G1 X110.2 Y132.3 E20.70585
G0 F6000 X110.6 Y131.9
;TYPE:WALL-INNER
G1 F1200 X124.4 Y131.9 E21.16484
G1 X124.4 Y118.677 E21.60464
G1 X124.166 Y118.511 E21.61419
G1 X123.947 Y118.229 E21.62606
G1 X123.829 Y117.955 E21.63598
G1 X123.79 Y117.706 E21.64437
G1 X123.817 Y117.346 E21.65637
G1 X123.929 Y117.046 E21.66702
G1 X124.168 Y116.727 E21.68028
G1 X124.4 Y116.562 E21.68975
G1 X124.4 Y103.1 E22.1375
G1 X110.6 Y103.1 E22.59649
G1 X110.6 Y131.9 E23.55438
G0 F6000 X110.96 Y131.54
;TYPE:SKIN
G1 F1200 X124.04 Y131.54 E23.98942
G1 X124.04 Y119.199 E24.39989
G1 X124.04 Y118.86 E24.41116
G1 X123.789 Y118.63 E24.42248
G1 X123.579 Y118.292 E24.43572
G1 X123.469 Y117.98 E24.44672
G1 X123.446 Y117.728 E24.45514
G1 X123.434 Y117.476 E24.46353
G1 X123.487 Y117.172 E24.47379
G1 X123.599 Y116.9 E24.48358
G1 X123.757 Y116.646 E24.49353
G1 X124.04 Y116.378 E24.50649
G1 X124.04 Y103.46 E24.93614
G1 X110.961 Y103.461 E25.37115
G1 X110.96 Y131.54 E26.30507
G1 F2700 E21.30507
G0 F6000 X110.7 Y131.54
G0 X112.942 Y131.702
G0 X115.938 Y129.98
G0 X116.874 Y130.282
G1 F2700 E26.30507
G0 F6000 X116.823 Y130.537
G1 F1200 X116.783 Y130.528 E26.30643
G1 X116.248 Y130.347 E26.32521
G1 X116.214 Y130.332 E26.32645
G1 X115.724 Y130.055 E26.34517
G1 X115.691 Y130.032 E26.34651
G1 X115.255 Y129.653 E26.36572
G1 X115.228 Y129.624 E26.36704
G1 X114.879 Y129.172 E26.38603
G1 X114.645 Y128.716 E26.40308
G1 X114.59 Y128.597 E26.40744
G1 X114.434 Y128.028 E26.42707
G1 X114.391 Y127.442 E26.44661
G1 X114.392 Y127.402 E26.44794
G1 X114.462 Y126.832 E26.46704
G1 X114.471 Y126.793 E26.46837
G1 X114.652 Y126.251 E26.48738
G1 X114.667 Y126.216 E26.48864
G1 X114.944 Y125.727 E26.50734
G1 X114.967 Y125.695 E26.50865
G1 X115.344 Y125.258 E26.52784
G1 X115.373 Y125.231 E26.52916
G1 X115.821 Y124.883 E26.54803
G1 X115.854 Y124.862 E26.54933
G1 X116.364 Y124.606 E26.56831
G1 X116.4 Y124.592 E26.56959
G1 X116.953 Y124.439 E26.58868
G1 X117.475 Y124.387 E26.60613
G1 X117.512 Y124.387 E26.60736
G1 X118.025 Y124.434 E26.62449
G1 X118.308 Y124.502 E26.63417
G1 X118.753 Y124.653 E26.6498
