;FLAVOR:Marlin
;TIME:5442
;Filament used: 3.89389m
;Layer height: 0.2
;MINX:99
;MINY:91.498
;MINZ:0.2
;MAXX:136
;MAXY:143.497
;MAXZ:33.8
;Generated with Cura_SteamEngine 5.0.0
M140 S50
M105
M190 S50
M104 S200
M105
M109 S200
M82 ;absolute extrusion mode
; Ender 3 Custom Start G-code
G92 E0 ; Reset Extruder
G28 ; Home all axes
G1 Z2.0 F3000 ; Move Z Axis up little to prevent scratching of Heat Bed
G1 X0.1 Y20 Z0.3 F5000.0 ; Move to start position
G1 X0.1 Y200.0 Z0.3 F1500.0 E15 ; Draw the first line
G1 X0.4 Y200.0 Z0.3 F5000.0 ; Move to side a little
G1 X0.4 Y20 Z0.3 F1500.0 E30 ; Draw the second line
G92 E0 ; Reset Extruder
G1 Z2.0 F3000 ; Move Z Axis up little to prevent scratching of Heat Bed
G1 X5 Y20 Z0.3 F5000.0 ; Move over to prevent blob squish
G92 E0
G92 E0
G1 F2700 E-5
;LAYER_COUNT:170
;LAYER:0
M107
G0 F6000 X102.198 Y94.762 Z0.2
G0 X99.001 Y103.023
;TYPE:SKIRT
G1 F2700 E0
G1 F1200 X99.01 Y102.358 E0.02212
G1 X99.063 Y101.422 E0.0533
G1 X99.195 Y100.493 E0.08451
G1 X99.406 Y99.579 E0.11571
G1 X99.694 Y98.687 E0.14689
G1 X100.057 Y97.822 E0.17809
G1 X100.492 Y96.991 E0.20928
G1 X100.996 Y96.201 E0.24045
G1 X101.566 Y95.456 E0.27165
G1 X102.198 Y94.762 E0.30287
G1 X102.886 Y94.125 E0.33405
G1 X103.626 Y93.549 E0.36524
G1 X104.412 Y93.037 E0.39644
G1 X105.239 Y92.595 E0.42763
G1 X106.101 Y92.225 E0.45883
G1 X106.991 Y91.929 E0.49003
G1 X107.903 Y91.711 E0.52122
G1 X108.83 Y91.57 E0.5524
G1 X109.701 Y91.511 E0.58144
G1 X110.33 Y91.498 E0.60236
G1 X124.293 Y91.498 E1.06677
G1 X125.149 Y91.509 E1.09525
G1 X126.085 Y91.563 E1.12643
G1 X127.013 Y91.695 E1.15761
G1 X127.927 Y91.907 E1.18881
G1 X128.819 Y92.196 E1.22
G1 X129.684 Y92.559 E1.2512
G1 X130.514 Y92.995 E1.28238
G1 X131.305 Y93.5 E1.3136
G1 X132.049 Y94.071 E1.34479
G1 X132.742 Y94.703 E1.37599
G1 X133.379 Y95.391 E1.40717
G1 X133.954 Y96.132 E1.43837
G1 X134.465 Y96.918 E1.46955
G1 X134.907 Y97.746 E1.50077
G1 X135.276 Y98.608 E1.53195
G1 X135.571 Y99.498 E1.56314
G1 X135.789 Y100.41 E1.59432
G1 X135.929 Y101.338 E1.62554
G1 X135.987 Y102.199 E1.65424
G1 X136 Y102.828 E1.67517
G1 X135.999 Y131.897 E2.64201
G1 X135.99 Y132.624 E2.66619
G1 X135.939 Y133.561 E2.6974
G1 X135.807 Y134.489 E2.72857
G1 X135.598 Y135.403 E2.75976
G1 X135.311 Y136.296 E2.79096
G1 X134.949 Y137.162 E2.82217
G1 X134.515 Y137.993 E2.85336
G1 X134.011 Y138.784 E2.88455
G1 X133.442 Y139.529 E2.91573
G1 X132.811 Y140.224 E2.94695
G1 X132.124 Y140.862 E2.97814
G1 X131.385 Y141.439 E3.00932
G1 X130.599 Y141.951 E3.04052
G1 X129.773 Y142.394 E3.07169
G1 X128.911 Y142.766 E3.10292
G1 X128.022 Y143.062 E3.13408
G1 X127.11 Y143.282 E3.16529
G1 X126.183 Y143.423 E3.19647
G1 X125.315 Y143.483 E3.22541
G1 X124.687 Y143.497 E3.24631
G1 X110.554 Y143.497 E3.71637
G1 X109.853 Y143.487 E3.73969
G1 X108.917 Y143.434 E3.77087
G1 X107.988 Y143.301 E3.80208
G1 X107.075 Y143.089 E3.83326
G1 X106.182 Y142.801 E3.86447
G1 X105.318 Y142.437 E3.89565
G1 X104.487 Y142.001 E3.92686
G1 X103.697 Y141.496 E3.95805
G1 X102.953 Y140.926 E3.98922
G1 X102.26 Y140.294 E4.02041
G1 X101.623 Y139.605 E4.05162
G1 X101.047 Y138.865 E4.08281
G1 X100.536 Y138.078 E4.11402
G1 X100.095 Y137.251 E4.1452
G1 X99.725 Y136.389 E4.1764
G1 X99.43 Y135.499 E4.20758
G1 X99.212 Y134.586 E4.2388
G1 X99.073 Y133.659 E4.26998
G1 X99.014 Y132.796 E4.29875
G1 X99 Y132.131 E4.32087
G1 X99.001 Y103.023 E5.28901
G0 F6000 X99.401 Y103.029
G1 F1200 X99.41 Y102.364 E5.31113
G1 X99.462 Y101.444 E5.34178
G1 X99.594 Y100.533 E5.37239
G1 X99.805 Y99.637 E5.40301
G1 X100.092 Y98.762 E5.43364
G1 X100.455 Y97.916 E5.46426
G1 X100.889 Y97.104 E5.49488
G1 X101.392 Y96.333 E5.5255
G1 X101.961 Y95.609 E5.55612
G1 X102.589 Y94.937 E5.58672
G1 X103.274 Y94.321 E5.61736
G1 X104.01 Y93.768 E5.64798
G1 X104.791 Y93.28 E5.67861
G1 X105.611 Y92.862 E5.70922
G1 X106.465 Y92.517 E5.73985
G1 X107.345 Y92.247 E5.77047
G1 X108.245 Y92.055 E5.80108
G1 X109.159 Y91.941 E5.83171
G1 X109.712 Y91.911 E5.85013
G1 X110.33 Y91.898 E5.87069
G1 X124.293 Y91.898 E6.3351
G1 X125.143 Y91.909 E6.36337
G1 X126.062 Y91.962 E6.39399
G1 X126.973 Y92.095 E6.42461
G1 X127.869 Y92.306 E6.45523
G1 X128.743 Y92.594 E6.48584
G1 X129.59 Y92.957 E6.51649
G1 X130.401 Y93.392 E6.54709
G1 X131.171 Y93.896 E6.5777
G1 X131.895 Y94.465 E6.60833
G1 X132.567 Y95.095 E6.63897
G1 X133.182 Y95.78 E6.66959
G1 X133.735 Y96.516 E6.7002
G1 X134.222 Y97.297 E6.73082
G1 X134.639 Y98.118 E6.76144
G1 X134.984 Y98.972 E6.79208
G1 X135.253 Y99.852 E6.82268
G1 X135.445 Y100.753 E6.85332
G1 X135.558 Y101.666 E6.88392
G1 X135.596 Y102.53 E6.91269
G1 X135.599 Y131.892 E7.88927
G1 X135.59 Y132.619 E7.91345
G1 X135.539 Y133.538 E7.94407
G1 X135.408 Y134.45 E7.97471
G1 X135.198 Y135.346 E8.00532
G1 X134.912 Y136.221 E8.03594
G1 X134.551 Y137.068 E8.06656
G1 X134.117 Y137.88 E8.09718
G1 X133.615 Y138.652 E8.12781
G1 X133.047 Y139.377 E8.15844
G1 X132.419 Y140.05 E8.18906
G1 X131.735 Y140.666 E8.21968
G1 X131 Y141.22 E8.25029
G1 X130.22 Y141.709 E8.28091
G1 X129.4 Y142.128 E8.31154
G1 X128.547 Y142.474 E8.34215
G1 X127.667 Y142.745 E8.37278
G1 X126.767 Y142.938 E8.40339
G1 X125.853 Y143.053 E8.43403
G1 X124.999 Y143.092 E8.46247
G1 X110.712 Y143.098 E8.93765
G1 X109.859 Y143.087 E8.96603
G1 X108.94 Y143.034 E8.99664
G1 X108.029 Y142.901 E9.02726
G1 X107.133 Y142.69 E9.05788
G1 X106.258 Y142.402 E9.08852
G1 X105.412 Y142.039 E9.11914
G1 X104.601 Y141.604 E9.14975
G1 X103.83 Y141.1 E9.18038
G1 X103.106 Y140.531 E9.21101
G1 X102.434 Y139.902 E9.24162
G1 X101.819 Y139.217 E9.27224
G1 X101.266 Y138.481 E9.30286
G1 X100.779 Y137.699 E9.3335
G1 X100.362 Y136.879 E9.3641
G1 X100.017 Y136.025 E9.39473
G1 X99.748 Y135.144 E9.42537
G1 X99.556 Y134.244 E9.45598
G1 X99.444 Y133.33 E9.48661
G1 X99.414 Y132.785 E9.50476
G1 X99.4 Y132.131 E9.52652
G1 X99.401 Y103.029 E10.49446
G0 F6000 X99.801 Y103.034
G1 F1200 X99.81 Y102.369 E10.51658
G1 X99.862 Y101.467 E10.54663
G1 X99.994 Y100.574 E10.57665
G1 X100.204 Y99.696 E10.60668
G1 X100.491 Y98.839 E10.63674
G1 X100.853 Y98.012 E10.66676
G1 X101.286 Y97.22 E10.69678
G1 X101.788 Y96.469 E10.72683
G1 X102.355 Y95.765 E10.75689
G1 X102.981 Y95.115 E10.78691
G1 X103.662 Y94.522 E10.81694
G1 X104.394 Y93.992 E10.847
G1 X105.169 Y93.529 E10.87703
G1 X105.982 Y93.136 E10.90706
G1 X106.827 Y92.816 E10.93711
G1 X107.696 Y92.573 E10.96712
G1 X108.584 Y92.407 E10.99717
G1 X109.723 Y92.311 E11.03519
G1 X110.33 Y92.298 E11.05538
G1 X124.293 Y92.298 E11.51979
G1 X125.137 Y92.309 E11.54787
G1 X126.039 Y92.362 E11.57792
G1 X126.932 Y92.494 E11.60794
G1 X127.81 Y92.705 E11.63798
G1 X128.666 Y92.993 E11.66802
G1 X129.493 Y93.355 E11.69804
G1 X130.285 Y93.79 E11.7281
G1 X131.036 Y94.292 E11.75814
G1 X131.739 Y94.859 E11.78818
G1 X132.389 Y95.486 E11.81822
G1 X132.981 Y96.168 E11.84826
G1 X133.511 Y96.899 E11.87829
G1 X133.973 Y97.675 E11.90832
G1 X134.366 Y98.488 E11.93836
G1 X134.684 Y99.333 E11.96839
G1 X134.927 Y100.203 E11.99843
G1 X135.092 Y101.091 E12.02847
G1 X135.187 Y102.221 E12.06619
G1 X135.2 Y102.828 E12.08638
G1 X135.199 Y131.887 E13.05289
G1 X135.19 Y132.614 E13.07707
G1 X135.139 Y133.516 E13.10712
G1 X135.008 Y134.41 E13.13717
G1 X134.799 Y135.288 E13.16719
G1 X134.513 Y136.145 E13.19724
G1 X134.152 Y136.973 E13.22728
G1 X133.72 Y137.765 E13.25729
G1 X133.219 Y138.517 E13.28734
G1 X132.653 Y139.221 E13.31739
G1 X132.028 Y139.872 E13.3474
G1 X131.347 Y140.466 E13.37746
G1 X130.616 Y140.997 E13.40751
G1 X129.842 Y141.461 E13.43752
G1 X129.029 Y141.855 E13.46757
G1 X128.185 Y142.175 E13.49759
G1 X127.315 Y142.42 E13.52766
G1 X126.428 Y142.586 E13.55767
G1 X125.292 Y142.684 E13.59559
G1 X124.687 Y142.697 E13.61572
G1 X110.566 Y142.697 E14.08539
G1 X109.865 Y142.687 E14.1087
G1 X108.963 Y142.634 E14.13876
G1 X108.07 Y142.502 E14.16878
G1 X107.191 Y142.291 E14.19885
G1 X106.335 Y142.003 E14.22889
G1 X105.508 Y141.641 E14.25891
G1 X104.716 Y141.207 E14.28895
G1 X103.966 Y140.704 E14.31899
G1 X103.263 Y140.137 E14.34902
G1 X102.613 Y139.511 E14.37904
G1 X102.02 Y138.829 E14.4091
G1 X101.491 Y138.097 E14.43914
G1 X101.028 Y137.322 E14.46916
G1 X100.636 Y136.508 E14.49921
G1 X100.317 Y135.663 E14.52925
G1 X100.074 Y134.794 E14.55927
G1 X99.909 Y133.906 E14.58931
G1 X99.814 Y132.774 E14.62709
G1 X99.8 Y132.131 E14.64848
G1 X99.801 Y103.034 E15.61625
G1 F2700 E10.61625
G0 F6000 X117.345 Y107.371
G0 X117.301 Y107.524
G1 F2700 E15.61625
G1 F1200 X117.345 Y107.371 E15.62155
G1 X117.477 Y107.299 E15.62655
G1 X117.63 Y107.345 E15.63186
G1 X117.7 Y107.497 E15.63743
G1 X117.641 Y107.639 E15.64254
G1 X117.502 Y107.698 E15.64756
G1 X117.369 Y107.649 E15.65228
G1 X117.301 Y107.524 E15.65701
G0 F6000 X116.911 Y107.378
G1 F1200 X117.036 Y107.117 E15.66663
G1 X117.272 Y106.942 E15.67641
G1 X117.5 Y106.897 E15.68414
G1 X117.787 Y106.97 E15.69399
G1 X118.001 Y107.166 E15.70364
G1 X118.099 Y107.444 E15.71344
G1 X118.057 Y107.722 E15.72279
G1 X117.879 Y107.965 E15.73281
G1 X117.614 Y108.089 E15.74254
G1 X117.33 Y108.074 E15.752
G1 X117.075 Y107.922 E15.76188
G1 X116.924 Y107.672 E15.77159
G1 X116.911 Y107.378 E15.78138
G0 F6000 X116.499 Y107.496
G1 F1200 X116.544 Y107.2 E15.79134
G1 X116.666 Y106.943 E15.8008
G1 X116.869 Y106.721 E15.8108
G1 X117.125 Y106.57 E15.82069
G1 X117.403 Y106.501 E15.83022
G1 X117.79 Y106.54 E15.84315
G1 X118.058 Y106.665 E15.85299
G1 X118.268 Y106.856 E15.86243
G1 X118.43 Y107.127 E15.87293
G1 X118.496 Y107.397 E15.88218
G1 X118.482 Y107.692 E15.892
G1 X118.382 Y107.972 E15.90189
G1 X118.208 Y108.206 E15.91159
G1 X117.967 Y108.383 E15.92153
G1 X117.694 Y108.481 E15.93118
G1 X117.4 Y108.494 E15.94097
G1 X117.115 Y108.422 E15.95074
G1 X116.861 Y108.269 E15.96061
G1 X116.667 Y108.053 E15.97026
G1 X116.541 Y107.787 E15.98005
G1 X116.499 Y107.496 E15.98983
G1 F2700 E10.98983
G0 F6000 X116.499 Y127.495
G1 F2700 E15.98983
G1 F1200 X116.547 Y127.192 E16.00003
G1 X116.677 Y126.927 E16.00985
G1 X116.872 Y126.718 E16.01936
G1 X117.116 Y126.573 E16.0288
G1 X117.405 Y126.501 E16.03871
G1 X117.784 Y126.537 E16.05137
G1 X118.06 Y126.668 E16.06153
G1 X118.267 Y126.854 E16.07078
G1 X118.427 Y127.118 E16.08105
G1 X118.496 Y127.389 E16.09035
G1 X118.482 Y127.695 E16.10054
G1 X118.387 Y127.962 E16.10997
G1 X118.215 Y128.198 E16.11968
G1 X117.972 Y128.381 E16.1298
G1 X117.701 Y128.478 E16.13937
G1 X117.403 Y128.493 E16.1493
G1 X117.105 Y128.417 E16.15952
G1 X116.87 Y128.274 E16.16867
G1 X116.667 Y128.054 E16.17863
G1 X116.544 Y127.796 E16.18814
G1 X116.499 Y127.495 E16.19826
G0 F6000 X116.903 Y127.571
G1 F1200 X116.926 Y127.324 E16.20651
G1 X117.074 Y127.074 E16.21617
G1 X117.331 Y126.921 E16.22612
G1 X117.498 Y126.896 E16.23174
G1 X117.79 Y126.971 E16.24176
G1 X118 Y127.165 E16.25127
G1 X118.099 Y127.441 E16.26103
G1 X118.061 Y127.715 E16.27023
G1 X117.929 Y127.917 E16.27825
G1 X117.678 Y128.071 E16.28805
G1 X117.385 Y128.087 E16.29781
G1 X117.124 Y127.964 E16.3074
G1 X116.972 Y127.784 E16.31524
G1 X116.903 Y127.571 E16.32269
G0 F6000 X117.3 Y127.495
G1 F1200 X117.374 Y127.342 E16.32834
G1 X117.499 Y127.297 E16.33276
G1 X117.646 Y127.36 E16.33808
G1 X117.701 Y127.495 E16.34292
G1 X117.64 Y127.64 E16.34816
G1 X117.502 Y127.697 E16.35312
G1 X117.355 Y127.635 E16.35843
G1 X117.3 Y127.495 E16.36343
G1 F2700 E11.36343
;MESH:D.stl
G0 F6000 X116.579 Y129.728
G0 X117.543 Y130.11
G1 F2700 E16.36343
G0 F6000 X117.522 Y129.7
;TYPE:WALL-OUTER
G1 F1200 X117.089 Y129.662 E16.37789
G1 X116.674 Y129.539 E16.39229
G1 X116.294 Y129.34 E16.40655
G1 X115.957 Y129.069 E16.42094
G1 X115.68 Y128.736 E16.43534
G1 X115.475 Y128.361 E16.44956
G1 X115.344 Y127.952 E16.46384
G1 X115.298 Y127.52 E16.47829
G1 X115.336 Y127.088 E16.49271
G1 X115.46 Y126.67 E16.50722
G1 X115.658 Y126.291 E16.52144
G1 X115.926 Y125.955 E16.53573
G1 X116.262 Y125.677 E16.55024
G1 X116.637 Y125.473 E16.56444
G1 X116.896 Y125.389 E16.57349
G1 X117.087 Y125.334 E16.5801
G1 X117.488 Y125.295 E16.5935
G1 X117.912 Y125.334 E16.60767
G1 X118.326 Y125.457 E16.62203
G1 X118.705 Y125.655 E16.63625
G1 X119.043 Y125.924 E16.65062
G1 X119.32 Y126.258 E16.66505
G1 X119.526 Y126.637 E16.6794
G1 X119.656 Y127.044 E16.69361
G1 X119.703 Y127.474 E16.708
G1 X119.663 Y127.909 E16.72253
G1 X119.541 Y128.324 E16.73691
G1 X119.343 Y128.702 E16.75111
G1 X119.072 Y129.039 E16.76549
G1 X119.045 Y129.067 E16.76678
G1 X118.74 Y129.318 E16.77992
G1 X118.365 Y129.523 E16.79414
G1 X117.951 Y129.654 E16.80858
G1 X117.522 Y129.7 E16.82293
G0 F6000 X117.561 Y130.098
;TYPE:WALL-INNER
G1 F1200 X117.051 Y130.06 E16.83994
G1 X116.557 Y129.921 E16.85701
G1 X116.105 Y129.693 E16.87384
G1 X115.704 Y129.379 E16.89078
G1 X115.37 Y128.988 E16.90789
G1 X115.123 Y128.55 E16.92461
G1 X114.962 Y128.07 E16.94145
G1 X114.9 Y127.558 E16.9586
G1 X114.938 Y127.05 E16.97555
G1 X115.078 Y126.553 E16.99272
G1 X115.305 Y126.103 E17.00949
G1 X115.616 Y125.702 E17.02636
G1 X116.01 Y125.366 E17.04359
G1 X116.449 Y125.12 E17.06032
G1 X116.778 Y125.007 E17.07189
G1 X117.047 Y124.936 E17.08115
G1 X117.469 Y124.895 E17.09525
G1 X117.952 Y124.936 E17.11137
G1 X118.443 Y125.075 E17.12834
G1 X118.893 Y125.302 E17.14511
G1 X119.295 Y125.614 E17.16203
G1 X119.63 Y126.006 E17.17918
G1 X119.879 Y126.449 E17.19609
G1 X120.038 Y126.926 E17.21281
G1 X120.101 Y127.434 E17.22983
G1 X120.061 Y127.949 E17.24701
G1 X119.923 Y128.441 E17.26401
G1 X119.696 Y128.891 E17.28077
G1 X119.382 Y129.292 E17.29771
G1 X119.299 Y129.376 E17.30164
G1 X118.994 Y129.627 E17.31478
G1 X118.553 Y129.876 E17.33162
G1 X118.068 Y130.036 E17.34861
G1 X117.561 Y130.098 E17.3656
G1 F2700 E12.3656
G0 F6000 X117.561 Y130.109
G0 X115.894 Y129.767
G0 X114.807 Y131.697
G0 X110.58 Y131.918
G1 F2700 E17.3656
G0 F6000 X110.2 Y132.297
;TYPE:WALL-OUTER
G1 F1200 X124.8 Y132.297 E17.8512
G1 X124.8 Y105.465 E18.74363
G1 X124.8 Y102.698 E18.83566
G1 X110.2 Y102.698 E19.32126
G1 X110.201 Y116.588 E19.78324
G1 X110.418 Y116.639 E19.79066
G1 X110.646 Y116.782 E19.79961
G1 X110.809 Y116.979 E19.80811
G1 X110.914 Y117.214 E19.81667
G1 X110.952 Y117.469 E19.82525
G1 X110.921 Y117.75 E19.83465
G1 X110.815 Y118.005 E19.84384
G1 X110.646 Y118.213 E19.85275
G1 X110.42 Y118.356 E19.86165
G1 X110.201 Y118.408 E19.86913
G1 X110.2 Y132.297 E20.33108
G0 F6000 X110.6 Y131.897
;TYPE:WALL-INNER
G1 F1200 X124.4 Y131.897 E20.79007
G1 X124.4 Y105.465 E21.6692
G1 X124.4 Y103.098 E21.74793
G1 X110.6 Y103.098 E22.20692
G1 X110.6 Y116.286 E22.64556
G1 X110.95 Y116.522 E22.6596
G1 X111.162 Y116.791 E22.67099
G1 X111.269 Y117.025 E22.67955
G1 X111.348 Y117.414 E22.69275
G1 X111.317 Y117.804 E22.70576
G1 X111.18 Y118.169 E22.71873
G1 X110.949 Y118.475 E22.73148
G1 X110.62 Y118.703 E22.74479
G1 X110.601 Y119.411 E22.76835
G1 X110.6 Y124.308 E22.93122
G1 X110.6 Y131.897 E23.18363
G1 F2700 E18.18363
G0 F6000 X110.61 Y131.897
G0 X110.425 Y118.596
G0 X116.716 Y110.158
G0 X117.538 Y110.11
G1 F2700 E23.18363
G0 F6000 X117.52 Y109.7
;TYPE:WALL-OUTER
G1 F1200 X117.089 Y109.662 E23.19803
G1 X116.675 Y109.539 E23.21239
G1 X116.294 Y109.34 E23.22669
G1 X115.957 Y109.069 E23.24107
G1 X115.929 Y109.041 E23.24239
G1 X115.68 Y108.736 E23.25548
G1 X115.474 Y108.359 E23.26977
G1 X115.344 Y107.949 E23.28408
G1 X115.298 Y107.519 E23.29846
G1 X115.336 Y107.088 E23.31285
G1 X115.458 Y106.674 E23.32721
G1 X115.658 Y106.291 E23.34158
G1 X115.927 Y105.955 E23.35589
G1 X116.261 Y105.678 E23.37033
G1 X116.638 Y105.472 E23.38461
G1 X117.05 Y105.342 E23.39898
G1 X117.478 Y105.295 E23.4133
G1 X117.912 Y105.334 E23.4278
G1 X118.331 Y105.459 E23.44234
G1 X118.706 Y105.655 E23.45641
G1 X119.043 Y105.926 E23.4708
G1 X119.319 Y106.257 E23.48513
G1 X119.525 Y106.636 E23.49948
