;FLAVOR:Marlin
;TIME:5385
;Filament used: 3.41293m
;Layer height: 0.2
;MINX:99
;MINY:91.5
;MINZ:0.2
;MAXX:136
;MAXY:143.5
;MAXZ:39.8
;Generated with Cura_SteamEngine 5.0.0
M140 S50
M105
M190 S50
M104 S200
M105
M109 S200
M82 ;absolute extrusion mode
; Ender 3 Custom Start G-code
G92 E0 ; Reset Extruder
G28 ; Home all axes
G1 Z2.0 F3000 ; Move Z Axis up little to prevent scratching of Heat Bed
G1 X0.1 Y20 Z0.3 F5000.0 ; Move to start position
G1 X0.1 Y200.0 Z0.3 F1500.0 E15 ; Draw the first line
G1 X0.4 Y200.0 Z0.3 F5000.0 ; Move to side a little
G1 X0.4 Y20 Z0.3 F1500.0 E30 ; Draw the second line
G92 E0 ; Reset Extruder
G1 Z2.0 F3000 ; Move Z Axis up little to prevent scratching of Heat Bed
G1 X5 Y20 Z0.3 F5000.0 ; Move over to prevent blob squish
G92 E0
G92 E0
G1 F2700 E-5
;LAYER_COUNT:199
;LAYER:0
M107
G0 F6000 X102.198 Y94.764 Z0.2
G0 X99.001 Y103.025
;TYPE:SKIRT
G1 F2700 E0
G1 F1200 X99.01 Y102.36 E0.02212
G1 X99.063 Y101.424 E0.0533
G1 X99.195 Y100.495 E0.08451
G1 X99.406 Y99.581 E0.11571
G1 X99.694 Y98.689 E0.14689
G1 X100.057 Y97.824 E0.17809
G1 X100.492 Y96.993 E0.20928
G1 X100.996 Y96.203 E0.24045
G1 X101.566 Y95.458 E0.27165
G1 X102.198 Y94.764 E0.30287
G1 X102.886 Y94.127 E0.33405
G1 X103.626 Y93.551 E0.36524
G1 X104.412 Y93.039 E0.39644
G1 X105.239 Y92.597 E0.42763
G1 X106.101 Y92.227 E0.45883
G1 X106.991 Y91.931 E0.49003
G1 X107.903 Y91.713 E0.52122
G1 X108.83 Y91.572 E0.5524
G1 X109.701 Y91.513 E0.58144
G1 X110.33 Y91.5 E0.60236
G1 X124.293 Y91.5 E1.06677
G1 X125.149 Y91.511 E1.09525
G1 X126.085 Y91.565 E1.12643
G1 X127.013 Y91.697 E1.15761
G1 X127.927 Y91.909 E1.18881
G1 X128.819 Y92.198 E1.22
G1 X129.684 Y92.561 E1.2512
G1 X130.514 Y92.997 E1.28238
G1 X131.305 Y93.502 E1.3136
G1 X132.049 Y94.073 E1.34479
G1 X132.742 Y94.705 E1.37599
G1 X133.379 Y95.393 E1.40717
G1 X133.954 Y96.134 E1.43837
G1 X134.465 Y96.92 E1.46955
G1 X134.907 Y97.748 E1.50077
G1 X135.276 Y98.61 E1.53195
G1 X135.571 Y99.5 E1.56314
G1 X135.789 Y100.412 E1.59432
G1 X135.929 Y101.34 E1.62554
G1 X135.987 Y102.201 E1.65424
G1 X136 Y102.83 E1.67517
G1 X135.999 Y131.9 E2.64204
G1 X135.99 Y132.627 E2.66622
G1 X135.939 Y133.564 E2.69743
G1 X135.807 Y134.492 E2.72861
G1 X135.598 Y135.406 E2.75979
G1 X135.311 Y136.299 E2.79099
G1 X134.949 Y137.165 E2.82221
G1 X134.515 Y137.996 E2.85339
G1 X134.011 Y138.787 E2.88459
G1 X133.442 Y139.532 E2.91576
G1 X132.811 Y140.227 E2.94699
G1 X132.124 Y140.865 E2.97817
G1 X131.385 Y141.442 E3.00935
G1 X130.599 Y141.954 E3.04055
G1 X129.773 Y142.397 E3.07173
G1 X128.911 Y142.769 E3.10295
G1 X128.022 Y143.065 E3.13412
G1 X127.11 Y143.285 E3.16532
G1 X126.183 Y143.426 E3.19651
G1 X125.299 Y143.487 E3.22598
G1 X124.67 Y143.5 E3.2469
G1 X110.565 Y143.499 E3.71604
G1 X109.867 Y143.49 E3.73926
G1 X108.931 Y143.438 E3.77044
G1 X108.002 Y143.306 E3.80165
G1 X107.088 Y143.096 E3.83284
G1 X106.195 Y142.809 E3.86403
G1 X105.33 Y142.446 E3.89524
G1 X104.499 Y142.012 E3.92642
G1 X103.708 Y141.508 E3.95761
G1 X102.963 Y140.938 E3.98881
G1 X102.269 Y140.307 E4.02001
G1 X101.632 Y139.62 E4.05117
G1 X101.055 Y138.88 E4.08238
G1 X100.543 Y138.094 E4.11358
G1 X100.1 Y137.267 E4.14478
G1 X99.729 Y136.406 E4.17597
G1 X99.433 Y135.516 E4.20716
G1 X99.214 Y134.604 E4.23836
G1 X99.073 Y133.677 E4.26954
G1 X99.013 Y132.788 E4.29918
G1 X99 Y132.158 E4.32014
G1 X99.001 Y103.025 E5.28911
G0 F6000 X99.401 Y103.031
G1 F1200 X99.41 Y102.366 E5.31123
G1 X99.462 Y101.446 E5.34187
G1 X99.594 Y100.535 E5.37249
G1 X99.805 Y99.639 E5.40311
G1 X100.092 Y98.764 E5.43373
G1 X100.455 Y97.918 E5.46435
G1 X100.889 Y97.106 E5.49498
G1 X101.392 Y96.335 E5.52559
G1 X101.961 Y95.611 E5.55622
G1 X102.589 Y94.939 E5.58681
G1 X103.274 Y94.323 E5.61745
G1 X104.01 Y93.77 E5.64807
G1 X104.791 Y93.282 E5.6787
G1 X105.611 Y92.864 E5.70932
G1 X106.465 Y92.519 E5.73995
G1 X107.345 Y92.249 E5.77056
G1 X108.245 Y92.057 E5.80117
G1 X109.159 Y91.943 E5.83181
G1 X109.712 Y91.913 E5.85023
G1 X110.33 Y91.9 E5.87079
G1 X124.293 Y91.9 E6.3352
G1 X125.143 Y91.911 E6.36347
G1 X126.062 Y91.964 E6.39409
G1 X126.973 Y92.097 E6.42471
G1 X127.869 Y92.308 E6.45533
G1 X128.743 Y92.596 E6.48593
G1 X129.59 Y92.959 E6.51658
G1 X130.401 Y93.394 E6.54719
G1 X131.171 Y93.898 E6.5778
G1 X131.895 Y94.467 E6.60843
G1 X132.567 Y95.097 E6.63906
G1 X133.182 Y95.782 E6.66968
G1 X133.735 Y96.518 E6.7003
G1 X134.222 Y97.299 E6.73091
G1 X134.639 Y98.12 E6.76154
G1 X134.984 Y98.974 E6.79218
G1 X135.253 Y99.854 E6.82278
G1 X135.445 Y100.755 E6.85342
G1 X135.558 Y101.668 E6.88402
G1 X135.596 Y102.532 E6.91278
G1 X135.599 Y131.895 E7.8894
G1 X135.59 Y132.622 E7.91358
G1 X135.539 Y133.541 E7.9442
G1 X135.408 Y134.453 E7.97484
G1 X135.198 Y135.349 E8.00545
G1 X134.912 Y136.224 E8.03607
G1 X134.551 Y137.071 E8.06669
G1 X134.117 Y137.883 E8.09731
G1 X133.615 Y138.655 E8.12794
G1 X133.047 Y139.38 E8.15858
G1 X132.419 Y140.053 E8.18919
G1 X131.735 Y140.669 E8.21981
G1 X131 Y141.223 E8.25042
G1 X130.22 Y141.712 E8.28104
G1 X129.4 Y142.131 E8.31167
G1 X128.547 Y142.477 E8.34228
G1 X127.667 Y142.748 E8.37291
G1 X126.767 Y142.941 E8.40352
G1 X125.853 Y143.056 E8.43416
G1 X125.288 Y143.087 E8.45298
G1 X124.67 Y143.1 E8.47354
G1 X110.57 Y143.099 E8.94251
G1 X109.872 Y143.09 E8.96573
G1 X108.953 Y143.038 E8.99634
G1 X108.042 Y142.907 E9.02695
G1 X107.146 Y142.697 E9.05756
G1 X106.271 Y142.41 E9.08819
G1 X105.424 Y142.048 E9.11883
G1 X104.612 Y141.614 E9.14945
G1 X103.841 Y141.112 E9.18005
G1 X103.116 Y140.544 E9.21068
G1 X102.443 Y139.915 E9.24132
G1 X101.828 Y139.231 E9.27191
G1 X101.274 Y138.496 E9.30253
G1 X100.786 Y137.715 E9.33316
G1 X100.367 Y136.895 E9.36379
G1 X100.021 Y136.042 E9.3944
G1 X99.751 Y135.162 E9.42502
G1 X99.558 Y134.261 E9.45566
G1 X99.444 Y133.348 E9.48627
G1 X99.413 Y132.777 E9.50529
G1 X99.4 Y132.158 E9.52588
G1 X99.401 Y103.031 E10.49465
G0 F6000 X99.801 Y103.036
G1 F1200 X99.81 Y102.371 E10.51677
G1 X99.862 Y101.469 E10.54682
G1 X99.994 Y100.576 E10.57684
G1 X100.204 Y99.698 E10.60687
G1 X100.491 Y98.841 E10.63693
G1 X100.853 Y98.014 E10.66695
G1 X101.286 Y97.222 E10.69697
G1 X101.788 Y96.471 E10.72702
G1 X102.355 Y95.767 E10.75708
G1 X102.981 Y95.117 E10.7871
G1 X103.662 Y94.524 E10.81713
G1 X104.394 Y93.994 E10.84719
G1 X105.169 Y93.531 E10.87722
G1 X105.982 Y93.138 E10.90725
G1 X106.827 Y92.818 E10.9373
G1 X107.696 Y92.575 E10.96732
G1 X108.584 Y92.409 E10.99736
G1 X109.723 Y92.313 E11.03538
G1 X110.33 Y92.3 E11.05557
G1 X124.293 Y92.3 E11.51998
G1 X125.137 Y92.311 E11.54806
G1 X126.039 Y92.364 E11.57811
G1 X126.932 Y92.496 E11.60814
G1 X127.81 Y92.707 E11.63817
G1 X128.666 Y92.995 E11.66821
G1 X129.493 Y93.357 E11.69823
G1 X130.285 Y93.792 E11.72829
G1 X131.036 Y94.294 E11.75833
G1 X131.739 Y94.861 E11.78837
G1 X132.389 Y95.488 E11.81841
G1 X132.981 Y96.17 E11.84845
G1 X133.511 Y96.901 E11.87848
G1 X133.973 Y97.677 E11.90852
G1 X134.366 Y98.49 E11.93855
G1 X134.684 Y99.335 E11.96858
G1 X134.927 Y100.205 E11.99862
G1 X135.092 Y101.093 E12.02866
G1 X135.187 Y102.223 E12.06638
G1 X135.2 Y102.83 E12.08657
G1 X135.199 Y131.89 E13.05311
G1 X135.19 Y132.617 E13.0773
G1 X135.139 Y133.519 E13.10734
G1 X135.008 Y134.413 E13.1374
G1 X134.799 Y135.291 E13.16741
G1 X134.513 Y136.148 E13.19746
G1 X134.152 Y136.976 E13.22751
G1 X133.72 Y137.768 E13.25751
G1 X133.219 Y138.52 E13.28757
G1 X132.653 Y139.224 E13.31761
G1 X132.028 Y139.875 E13.34763
G1 X131.347 Y140.469 E13.37768
G1 X130.616 Y141 E13.40773
G1 X129.842 Y141.464 E13.43775
G1 X129.029 Y141.858 E13.4678
G1 X128.185 Y142.178 E13.49782
G1 X127.315 Y142.423 E13.52788
G1 X126.428 Y142.589 E13.55789
G1 X125.277 Y142.687 E13.59631
G1 X124.67 Y142.7 E13.61651
G1 X110.575 Y142.699 E14.08531
G1 X109.877 Y142.69 E14.10853
G1 X108.976 Y142.639 E14.13854
G1 X108.082 Y142.507 E14.1686
G1 X107.204 Y142.298 E14.19862
G1 X106.347 Y142.011 E14.22868
G1 X105.52 Y141.65 E14.25869
G1 X104.727 Y141.217 E14.28874
G1 X103.976 Y140.716 E14.31877
G1 X103.272 Y140.15 E14.34881
G1 X102.621 Y139.524 E14.37885
G1 X102.028 Y138.843 E14.40888
G1 X101.498 Y138.112 E14.43892
G1 X101.034 Y137.337 E14.46896
G1 X100.64 Y136.524 E14.49901
G1 X100.32 Y135.68 E14.52903
G1 X100.076 Y134.81 E14.55908
G1 X99.91 Y133.922 E14.58913
G1 X99.813 Y132.767 E14.62768
G1 X99.8 Y132.158 E14.64794
G1 X99.801 Y103.036 E15.61654
G1 F2700 E10.61654
;MESH:A.stl
G0 F6000 X114.825 Y108.695
G0 X115.999 Y109.747
G0 X117.002 Y110.217
G1 F2700 E15.61654
G0 F6000 X117.061 Y109.812
;TYPE:WALL-OUTER
G1 F1200 X116.758 Y109.724 E15.62704
G1 X116.21 Y109.467 E15.64717
G1 X115.851 Y109.177 E15.66252
G1 X115.556 Y108.822 E15.67787
G1 X115.335 Y108.419 E15.69316
G1 X115.198 Y107.981 E15.70842
G1 X115.149 Y107.522 E15.72377
G1 X115.19 Y107.059 E15.73923
G1 X115.322 Y106.615 E15.75464
G1 X115.534 Y106.211 E15.76981
G1 X115.822 Y105.851 E15.78515
G1 X116.179 Y105.555 E15.80057
G1 X116.58 Y105.336 E15.81577
G1 X117.021 Y105.197 E15.83115
G1 X117.48 Y105.148 E15.8465
G1 X117.942 Y105.189 E15.86193
G1 X118.384 Y105.321 E15.87727
G1 X118.791 Y105.534 E15.89255
G1 X119.15 Y105.821 E15.90783
G1 X119.445 Y106.177 E15.92321
G1 X119.665 Y106.58 E15.93848
G1 X119.804 Y107.02 E15.95383
G1 X119.853 Y107.478 E15.96915
G1 X119.812 Y107.94 E15.98458
G1 X119.681 Y108.382 E15.99991
G1 X119.467 Y108.79 E16.01523
G1 X119.18 Y109.149 E16.03052
G1 X118.823 Y109.445 E16.04595
G1 X118.791 Y109.467 E16.04724
G1 X118.421 Y109.665 E16.06119
G1 X117.981 Y109.804 E16.07654
G1 X117.522 Y109.853 E16.0919
G1 X117.061 Y109.812 E16.10729
G0 F6000 X117.022 Y110.21
;TYPE:WALL-INNER
G1 F1200 X116.641 Y110.106 E16.12042
G1 X116.393 Y110.018 E16.12918
G1 X116.022 Y109.82 E16.14316
G1 X115.597 Y109.487 E16.16112
G1 X115.246 Y109.075 E16.17912
G1 X114.983 Y108.608 E16.19695
G1 X114.815 Y108.097 E16.21484
G1 X114.751 Y107.562 E16.23276
G1 X114.792 Y107.019 E16.25087
G1 X114.94 Y106.498 E16.26889
G1 X115.181 Y106.022 E16.28663
G1 X115.512 Y105.599 E16.3045
G1 X115.927 Y105.245 E16.32264
G1 X116.391 Y104.984 E16.34035
G1 X116.904 Y104.815 E16.35831
G1 X117.441 Y104.75 E16.3763
G1 X117.981 Y104.791 E16.39431
G1 X118.502 Y104.939 E16.41233
G1 X118.979 Y105.181 E16.43012
G1 X119.402 Y105.511 E16.44796
G1 X119.755 Y105.925 E16.46606
G1 X120.017 Y106.391 E16.48384
G1 X120.186 Y106.903 E16.50177
G1 X120.251 Y107.439 E16.51973
G1 X120.21 Y107.978 E16.53771
G1 X120.063 Y108.499 E16.55571
G1 X119.82 Y108.978 E16.57358
G1 X119.49 Y109.401 E16.59142
G1 X119.076 Y109.755 E16.60954
G1 X118.98 Y109.819 E16.61338
G1 X118.609 Y110.017 E16.62736
G1 X118.099 Y110.186 E16.64523
G1 X117.561 Y110.251 E16.66326
G1 X117.022 Y110.21 E16.68124
G1 F2700 E11.68124
G0 F6000 X117.021 Y110.219
G0 X117.485 Y110.434
G0 X117.484 Y124.567
G0 X115.999 Y125.254
G0 X115.412 Y125.786
G0 X115.004 Y126.467
G0 X114.812 Y127.235
G0 X114.85 Y128.028
G0 X115.117 Y128.774
G0 X115.59 Y129.411
G0 X116.106 Y129.794
G0 X117.001 Y130.217
G1 F2700 E16.68124
G0 F6000 X117.06 Y129.812
;TYPE:WALL-OUTER
G1 F1200 X116.617 Y129.68 E16.69661
G1 X116.21 Y129.467 E16.71189
G1 X115.851 Y129.177 E16.72724
G1 X115.556 Y128.822 E16.74259
G1 X115.336 Y128.421 E16.7578
G1 X115.198 Y127.981 E16.77314
G1 X115.192 Y127.957 E16.77396
G1 X115.148 Y127.521 E16.78854
G1 X115.19 Y127.06 E16.80394
G1 X115.32 Y126.619 E16.81923
G1 X115.534 Y126.211 E16.83455
G1 X115.822 Y125.851 E16.84988
G1 X116.179 Y125.555 E16.86531
G1 X116.58 Y125.336 E16.88051
G1 X117.021 Y125.197 E16.89588
G1 X117.481 Y125.148 E16.91127
G1 X117.941 Y125.189 E16.92663
G1 X118.384 Y125.321 E16.94201
G1 X118.791 Y125.534 E16.95728
G1 X119.15 Y125.821 E16.97257
G1 X119.445 Y126.177 E16.98795
G1 X119.665 Y126.581 E17.00325
G1 X119.804 Y127.019 E17.01853
G1 X119.853 Y127.479 E17.03392
G1 X119.812 Y127.94 E17.04931
G1 X119.68 Y128.384 E17.06472
G1 X119.467 Y128.79 E17.07997
G1 X119.18 Y129.149 E17.09525
G1 X118.823 Y129.445 E17.11068
G1 X118.42 Y129.665 E17.12595
G1 X117.982 Y129.804 E17.14123
G1 X117.521 Y129.853 E17.15665
G1 X117.06 Y129.812 E17.17205
G0 F6000 X117.021 Y130.21
;TYPE:WALL-INNER
G1 F1200 X116.499 Y130.062 E17.19009
G1 X116.022 Y129.82 E17.20788
G1 X115.597 Y129.487 E17.22584
G1 X115.246 Y129.075 E17.24384
G1 X114.984 Y128.61 E17.26159
G1 X114.815 Y128.097 E17.27956
G1 X114.798 Y128.026 E17.28199
G1 X114.75 Y127.561 E17.29754
G1 X114.792 Y127.02 E17.31558
G1 X114.937 Y126.503 E17.33344
G1 X115.181 Y126.022 E17.35138
G1 X115.512 Y125.599 E17.36925
G1 X115.927 Y125.245 E17.38739
G1 X116.391 Y124.984 E17.40509
G1 X116.64 Y124.896 E17.41388
G1 X116.94 Y124.805 E17.42431
G1 X117.442 Y124.75 E17.4411
G1 X117.98 Y124.791 E17.45905
G1 X118.502 Y124.939 E17.47709
G1 X118.979 Y125.181 E17.49488
G1 X119.402 Y125.511 E17.51273
G1 X119.755 Y125.925 E17.53082
G1 X120.018 Y126.392 E17.54865
G1 X120.186 Y126.901 E17.56648
G1 X120.251 Y127.44 E17.58453
G1 X120.21 Y127.979 E17.60251
G1 X120.062 Y128.501 E17.62056
G1 X119.819 Y128.979 E17.63839
G1 X119.49 Y129.401 E17.65619
G1 X119.076 Y129.755 E17.67431
G1 X118.608 Y130.018 E17.69216
G1 X118.1 Y130.186 E17.70996
G1 X117.56 Y130.251 E17.72805
G1 X117.021 Y130.21 E17.74603
G1 F2700 E12.74603
G0 F6000 X117.019 Y130.219
G0 X115.938 Y129.98
G0 X112.903 Y131.7
G0 X110.58 Y131.92
G1 F2700 E17.74603
G0 F6000 X110.2 Y132.3
;TYPE:WALL-OUTER
G1 F1200 X124.8 Y132.3 E18.23163
G1 X124.8 Y105.403 E19.12623
G1 X124.8 Y102.7 E19.21613
G1 X110.2 Y102.7 E19.70173
G1 X110.201 Y116.59 E20.16371
G1 X110.419 Y116.642 E20.17116
G1 X110.646 Y116.785 E20.18009
G1 X110.809 Y116.981 E20.18857
G1 X110.915 Y117.22 E20.19726
G1 X110.952 Y117.472 E20.20573
G1 X110.921 Y117.751 E20.21507
G1 X110.815 Y118.006 E20.22425
G1 X110.646 Y118.216 E20.23322
G1 X110.42 Y118.359 E20.24211
G1 X110.2 Y118.412 E20.24964
G1 X110.2 Y132.3 E20.71156
G0 F6000 X110.6 Y131.9
;TYPE:WALL-INNER
G1 F1200 X124.4 Y131.9 E21.17055
G1 X124.4 Y105.403 E22.05184
G1 X124.4 Y103.1 E22.12844
G1 X110.6 Y103.1 E22.58743
G1 X110.6 Y116.288 E23.02606
G1 X110.949 Y116.523 E23.04006
G1 X111.161 Y116.791 E23.05142
G1 X111.27 Y117.029 E23.06013
G1 X111.348 Y117.417 E23.07329
G1 X111.317 Y117.806 E23.08627
G1 X111.18 Y118.17 E23.09921
G1 X110.95 Y118.476 E23.11194
G1 X110.62 Y118.706 E23.12532
G1 X110.601 Y119.42 E23.14908
G1 X110.6 Y131.9 E23.56416
G0 F6000 X110.961 Y131.539
;TYPE:SKIN
G1 F1200 X124.04 Y131.54 E23.99917
G1 X124.04 Y105.407 E24.86836
G1 X124.04 Y103.46 E24.93312
G1 X110.961 Y103.461 E25.36812
G1 X110.961 Y116.03 E25.78617
G1 X110.993 Y116.097 E25.78864
G1 X111.204 Y116.27 E25.79772
G1 X111.489 Y116.646 E25.81341
G1 X111.662 Y117.087 E25.82916
G1 X111.706 Y117.591 E25.84599
G1 X111.651 Y117.933 E25.85751
G1 X111.567 Y118.183 E25.86628
G1 X111.462 Y118.407 E25.87451
G1 X111.236 Y118.697 E25.88674
G1 X110.962 Y118.911 E25.8983
G1 X110.961 Y131.539 E26.31831
G1 F2700 E21.31831
G0 F6000 X110.7 Y131.539
G0 X112.942 Y131.702
G0 X116.447 Y130.236
G0 X117.452 Y130.351
G1 F2700 E26.31831
G0 F6000 X117.442 Y130.61
G1 F1200 X117.402 Y130.609 E26.31964
G1 X116.828 Y130.538 E26.33888
G1 X116.789 Y130.529 E26.34021
G1 X116.249 Y130.347 E26.35917
G1 X116.215 Y130.332 E26.3604
G1 X115.723 Y130.055 E26.37918
G1 X115.69 Y130.031 E26.38054
G1 X115.257 Y129.653 E26.39966
G1 X115.231 Y129.625 E26.40093
G1 X114.88 Y129.174 E26.41993
G1 X114.645 Y128.718 E26.437
G1 X114.59 Y128.598 E26.44139
G1 X114.435 Y128.03 E26.46097
G1 X114.391 Y127.44 E26.48065
G1 X114.392 Y127.4 E26.48198
G1 X114.463 Y126.832 E26.50102
G1 X114.472 Y126.794 E26.50232
G1 X114.65 Y126.256 E26.52116
G1 X114.665 Y126.22 E26.52246
G1 X114.945 Y125.726 E26.54135
G1 X114.968 Y125.693 E26.54268
G1 X115.347 Y125.256 E26.56192
G1 X115.376 Y125.23 E26.56322
